kimcd/ROS-UR/ur5_collision_srv/scripts/EllipsoidalSlicing_Propeller_Slice22_UR5_Path_2_of_9_0p0080.csv
t,theta_1,theta_2,theta_3,theta_4,theta_5,theta_6,thetaDOT_1,thetaDOT_2,thetaDOT_3,thetaDOT_4,thetaDOT_5,thetaDOT_6
0,0.09916941,-1.74960145,1.401292527,0.74473494,2.34089483,-1.52169196,0.09572067,0.07935995,-0.0354701,0.00444533,0.2565906,0.06361358
0.008,0.09990152,-1.74899573,1.401021967,0.7447682,2.34285536,-1.52120659,0.08738387,0.07213756,-0.03220183,0.00387539,0.23375661,0.05778528
0.016,0.1005688,-1.74844616,1.400776797,0.74479704,2.34463838,-1.52076651,0.0795166,0.06532496,-0.02911951,0.00334028,0.21221269,0.05228777
0.024,0.10117503,-1.74794944,1.400555557,0.74482174,2.3462542,-1.5203691,0.07211887,0.05892215,-0.02622313,0.00284003,0.19195884,0.04712103
0.032,0.10172396,-1.74750231,1.400356737,0.74484257,2.34771316,-1.52001169,0.06519067,0.05292913,-0.02351268,0.00237462,0.17299507,0.04228508
0.04,0.10221934,-1.74710148,1.400178857,0.74485982,2.34902556,-1.51969166,0.058732,0.0473459,-0.02098818,0.00194405,0.15532136,0.03777991
0.048,0.10266492,-1.74674368,1.400020427,0.74487377,2.35020174,-1.51940633,0.05274287,0.04217247,-0.01864962,0.00154832,0.13893773,0.03360552
0.056,0.10306447,-1.74642563,1.399879967,0.74488469,2.35125201,-1.51915309,0.04722327,0.03740883,-0.01649699,0.00118744,0.12384418,0.02976191
0.064,0.10342175,-1.74614405,1.399755977,0.74489286,2.35218669,-1.51892926,0.04217321,0.03305497,-0.01453031,0.0008614,0.11004069,0.02624908
0.072,0.1037405,-1.74589566,1.399646987,0.74489857,2.3530161,-1.51873222,0.03759268,0.02911091,-0.01274957,0.00057021,0.09752728,0.02306704
0.08,0.10402448,-1.74567718,1.399551497,0.74490208,2.35375056,-1.51855931,0.03348169,0.02557665,-0.01115476,0.00031386,0.08630393,0.02021578
0.088,0.10427746,-1.74548534,1.399468017,0.74490368,2.3544004,-1.51840788,0.02984023,0.02245217,-0.0097459,0.00009236,0.07637066,0.0176953
0.096,0.10450318,-1.74531685,1.399395067,0.74490365,2.35497593,-1.5182753,0.0266683,0.01973748,-0.00852297,-0.0000943,0.06772747,0.0155056
0.104,0.1047054,-1.74516845,1.399331147,0.74490226,2.35548748,-1.51815891,0.02396591,0.01743259,-0.00748599,-0.00024612,0.06037434,0.01364668
0.112,0.10488788,-1.74503684,1.399274787,0.7448998,2.35594536,-1.51805607,0.02173305,0.01553749,-0.00663494,-0.00036309,0.05431129,0.01211855
0.12,0.10505438,-1.74491875,1.399224497,0.74489655,2.3563599,-1.51796413,0.01996973,0.01405218,-0.00596984,-0.00044522,0.04953831,0.0109212
0.128,0.10520865,-1.74481091,1.399178777,0.74489277,2.35674142,-1.51788045,0.01867594,0.01297666,-0.00549067,-0.00049251,0.0460554,0.01005463
0.136,0.10535445,-1.74471003,1.399136147,0.74488876,2.35710023,-1.51780238,0.01785168,0.01231093,-0.00519745,-0.00050495,0.04386256,0.00951884
0.144,0.10549553,-1.74461284,1.399095127,0.74488479,2.35744666,-1.51772727,0.01749696,0.012055,-0.00509016,-0.00048254,0.0429598,0.00931383
0.152,0.10563565,-1.74451606,1.399054207,0.74488113,2.35779103,-1.51765247,0.01761177,0.01220885,-0.00516882,-0.0004253,0.04334711,0.00943961
0.16,0.10577857,-1.74441641,1.399011927,0.74487808,2.35814365,-1.51757535,0.01819612,0.0127725,-0.00543341,-0.00033321,0.04502449,0.00989616
0.168,0.10592804,-1.74431061,1.398966777,0.74487589,2.35851486,-1.51749325,0.01925,0.01374594,-0.00588395,-0.00020627,0.04799194,0.0106835
0.176,0.10608782,-1.74419538,1.398917287,0.74487487,2.35891496,-1.51740353,0.02077341,0.01512917,-0.00652042,-0.00004449,0.05224947,0.01180162
0.184,0.10626167,-1.74406745,1.398861957,0.74487528,2.35935429,-1.51730354,0.02276636,0.0169222,-0.00734283,0.00015213,0.05779706,0.01325052
0.192,0.10645334,-1.74392353,1.398799307,0.74487739,2.35984316,-1.51719064,0.02522885,0.01912501,-0.00835119,0.0003836,0.06463473,0.01503021
0.2,0.10666658,-1.74376036,1.398727847,0.74488151,2.36039189,-1.51706218,0.02816086,0.02173762,-0.00954548,0.00064991,0.07276248,0.01714067
0.208,0.10690516,-1.74357464,1.398646077,0.74488789,2.3610108,-1.51691551,0.03156242,0.02476002,-0.01092572,0.00095106,0.08218029,0.01958192
0.216,0.10717283,-1.7433631,1.398552537,0.74489682,2.36171021,-1.51674799,0.0354335,0.02819221,-0.01249189,0.00128706,0.09288818,0.02235395
0.224,0.10747335,-1.74312247,1.398445717,0.74490857,2.36250045,-1.51655696,0.03977412,0.03203419,-0.014244,0.0016579,0.10488613,0.02545676
0.232,0.10781047,-1.74284946,1.398324137,0.74492343,2.36339183,-1.5163398,0.04458428,0.03628596,-0.01618206,0.00206359,0.11817417,0.02889036
0.24,0.10818795,-1.7425408,1.398186307,0.74494168,2.36439467,-1.51609384,0.04986396,0.04094753,-0.01830605,0.00250412,0.13275227,0.03265473
0.248,0.10860955,-1.74219321,1.398030747,0.74496359,2.36551931,-1.51581644,0.05561319,0.04601888,-0.02061598,0.00297949,0.14862044,0.03674989
0.256,0.10907901,-1.74180341,1.397855957,0.74498945,2.36677604,-1.51550496,0.06183194,0.05150003,-0.02311185,0.00348971,0.16577869,0.04117583
0.264,0.10960011,-1.74136812,1.397660457,0.74501952,2.3681752,-1.51515674,0.06852023,0.05739097,-0.02579367,0.00403477,0.18422701,0.04593255
0.272,0.11017659,-1.74088406,1.397442757,0.7450541,2.36972711,-1.51476915,0.07567806,0.0636917,-0.02866142,0.00461468,0.2039654,0.05102005
0.28,0.11081221,-1.74034796,1.397201377,0.74509345,2.37144209,-1.51433954,0.08330542,0.07040222,-0.03171511,0.00522943,0.22499387,0.05643834
0.288,0.11151073,-1.73975653,1.396934827,0.74513786,2.37333046,-1.51386526,0.09140231,0.07752254,-0.03495474,0.00587903,0.2473124,0.06218741
0.296,0.1122759,-1.7391065,1.396641607,0.74518761,2.37540253,-1.51334366,0.09996874,0.08505265,-0.03838032,0.00656346,0.27092101,0.06826725
0.304,0.11311148,-1.7383946,1.396320247,0.74524297,2.37766863,-1.5127721,0.1090047,0.09299254,-0.04199183,0.00728275,0.29581969,0.07467788
0.312,0.11402022,-1.7376183,1.395969577,0.74530425,2.38013647,-1.51214853,0.11809485,0.1010257,-0.04565295,0.00804875,0.32093183,0.08117324
0.32,0.11499958,-1.73677913,1.395590177,0.74537192,2.38280005,-1.51147403,0.12665536,0.10870718,-0.04917206,0.00887818,0.34474401,0.08740744
0.328,0.11604528,-1.73587993,1.395183207,0.74544647,2.38564888,-1.51075071,0.13468215,0.11603386,-0.05254782,0.00977114,0.36724569,0.09337808
0.336,0.11715307,-1.73492353,1.394749797,0.74552843,2.38867249,-1.50998068,0.14217523,0.12300576,-0.05578023,0.01072764,0.38843687,0.09908515
0.344,0.11831866,-1.73391278,1.394291097,0.74561828,2.39186038,-1.50916605,0.14913459,0.12962288,-0.05886928,0.01174767,0.40831755,0.10452865
0.352,0.1195378,-1.73285051,1.393808267,0.74571656,2.39520207,-1.50830893,0.15556024,0.13588521,-0.06181498,0.01283124,0.42688774,0.10970859
0.36,0.1208062,-1.73173957,1.393302447,0.74582375,2.39868709,-1.50741142,0.16145216,0.14179275,-0.06461733,0.01397835,0.44414742,0.11462497
0.368,0.12211961,-1.73058278,1.392774777,0.74594038,2.40230494,-1.50647563,0.16681037,0.1473455,-0.06727633,0.015189,0.4600966,0.11927778
0.376,0.12347375,-1.72938298,1.392226407,0.74606695,2.40604514,-1.50550368,0.17163487,0.15254347,-0.06979198,0.01646318,0.47473529,0.12366702
0.384,0.12486434,-1.72814303,1.391658487,0.74620396,2.40989721,-1.50449766,0.17592565,0.15738665,-0.07216427,0.0178009,0.48806347,0.1277927
0.392,0.12628713,-1.72686574,1.391072157,0.74635193,2.41385066,-1.5034597,0.17968271,0.16187504,-0.07439321,0.01920216,0.50008116,0.13165481
0.4,0.12773784,-1.72555397,1.390468577,0.74651137,2.41789501,-1.50239189,0.18290606,0.16600865,-0.0764788,0.02066695,0.51078834,0.13525336
0.408,0.12921221,-1.72421055,1.389848877,0.74668277,2.42201978,-1.50129634,0.18559569,0.16978747,-0.07842104,0.02219528,0.52018503,0.13858834
0.416,0.13070595,-1.72283832,1.389214217,0.74686666,2.42621448,-1.50017518,0.1877516,0.17321151,-0.08021992,0.02378715,0.52827122,0.14165976
0.424,0.13221481,-1.72144011,1.388565747,0.74706354,2.43046862,-1.49903049,0.1893738,0.17628076,-0.08187545,0.02544255,0.5350469,0.14446761
0.432,0.13373451,-1.72001877,1.387904597,0.74727391,2.43477173,-1.4978644,0.19046228,0.17899522,-0.08338763,0.02716149,0.54051209,0.14701189
0.44,0.13526078,-1.71857714,1.387231927,0.74749829,2.43911332,-1.496679,0.19101705,0.18135489,-0.08475646,0.02894396,0.54466678,0.14929261
0.448,0.13678936,-1.71711804,1.386548877,0.74773718,2.44348291,-1.49547642,0.19103809,0.18335978,-0.08598194,0.03078998,0.54751097,0.15130977
0.456,0.13831597,-1.71564433,1.385856597,0.7479911,2.44787,-1.49425875,0.19052543,0.18500988,-0.08706406,0.03269953,0.54904466,0.15306336
0.464,0.13983676,-1.71415857,1.385156137,0.74826051,2.45226511,-1.49302788,0.18965926,0.18641701,-0.08804589,0.03465831,0.54969601,0.15465011
0.472,0.14135038,-1.7126618,1.384447937,0.7485457,2.45666469,-1.49178436,0.1887368,0.18776557,-0.08899846,0.03664271,0.55017113,0.15622955
0.48,0.14285641,-1.71115447,1.383732237,0.74884686,2.46106741,-1.49052823,0.18776246,0.18905828,-0.0899228,0.0386524,0.55048047,0.15780404
0.488,0.14435444,-1.70963702,1.383009247,0.7491642,2.46547194,-1.48925951,0.18673621,0.19029514,-0.09081892,0.04068738,0.55062402,0.15937358
0.496,0.14584405,-1.7081099,1.382279207,0.74949793,2.46987695,-1.48797826,0.18565808,0.19147616,-0.09168681,0.04274763,0.55060179,0.16093816
0.504,0.14732483,-1.70657355,1.381542337,0.74984823,2.47428112,-1.48668451,0.18452805,0.19260133,-0.09252649,0.04483316,0.55041378,0.1624978
0.512,0.14879636,-1.70502842,1.380798857,0.75021533,2.47868313,-1.48537831,0.18334613,0.19367066,-0.09333794,0.04694398,0.55005999,0.16405248
0.52,0.15025823,-1.70347497,1.380048997,0.7505994,2.48308164,-1.48405969,0.18211232,0.19468414,-0.09412118,0.04908008,0.54954041,0.16560221
0.528,0.15171002,-1.70191363,1.379292997,0.75100067,2.48747533,-1.48272869,0.18082662,0.19564178,-0.09487619,0.05124145,0.54885505,0.16714699
0.536,0.15315132,-1.70034485,1.378531057,0.75141934,2.49186288,-1.48138535,0.17948902,0.19654357,-0.09560298,0.05342811,0.54800391,0.16868681
0.544,0.1545817,-1.69876908,1.377763417,0.75185559,2.49624295,-1.48002971,0.17809953,0.19738951,-0.09630155,0.05564006,0.54698698,0.17022169
0.552,0.15600077,-1.69718677,1.376990307,0.75230964,2.50061423,-1.47866182,0.17665814,0.19817961,-0.0969719,0.05787728,0.54580427,0.17175161
0.56,0.1574081,-1.69559835,1.376211947,0.7527817,2.50497538,-1.4772817,0.17516487,0.19891387,-0.09761402,0.06013978,0.54445578,0.17327658
0.568,0.15880327,-1.69400429,1.375428557,0.75327195,2.50932508,-1.4758894,0.1736197,0.19959228,-0.09822793,0.06242757,0.5429415,0.1747966
0.576,0.16018587,-1.69240503,1.374640377,0.7537806,2.513662,-1.47448497,0.17202264,0.20021484,-0.09881361,0.06474064,0.54126144,0.17631167
0.584,0.16155549,-1.690801,1.373847617,0.75430787,2.51798482,-1.47306843,0.17037368,0.20078156,-0.09937107,0.06707899,0.5394156,0.17782178
0.592,0.16291171,-1.68919267,1.373050507,0.75485394,2.52229221,-1.47163983,0.16867283,0.20129243,-0.09990031,0.06944262,0.53740398,0.17932695
0.6,0.16425412,-1.68758047,1.372249287,0.75541901,2.52658284,-1.47019921,0.16692009,0.20174746,-0.10040133,0.07183153,0.53522657,0.18082716
0.608,0.1655823,-1.68596486,1.371444167,0.75600331,2.53085539,-1.46874661,0.16511546,0.20214664,-0.10087413,0.07424572,0.53288338,0.18232242
0.616,0.16689569,-1.68434657,1.370635527,0.75660678,2.53510792,-1.46728242,0.16319614,0.20235482,-0.10124715,0.07657654,0.53009422,0.18365183
0.624,0.1681928,-1.6827284,1.369824857,0.75722774,2.53933424,-1.46580947,0.16104112,0.20211154,-0.1013825,0.07861459,0.52631918,0.18450533
0.632,0.16947171,-1.68111401,1.369014057,0.75786382,2.54352636,-1.46433162,0.15864737,0.20141027,-0.10127672,0.08035464,0.52154472,0.18487515
0.64,0.17073052,-1.67950706,1.368205067,0.75851262,2.54767629,-1.46285275,0.1560149,0.20025103,-0.10092982,0.08179668,0.51577084,0.18476129
0.648,0.17196731,-1.67791121,1.367399817,0.75917177,2.55177603,-1.46137673,0.15314369,0.1986338,-0.1003418,0.08294072,0.50899755,0.18416376
0.656,0.17318018,-1.67633014,1.366600247,0.75983888,2.55581759,-1.45990742,0.15003376,0.19655859,-0.09951265,0.08378675,0.50122484,0.18308255
0.664,0.17436722,-1.6747675,1.365808257,0.76051156,2.55979296,-1.4584487,0.1466851,0.1940254,-0.09844238,0.08433477,0.49245273,0.18151767
0.672,0.17552651,-1.67322695,1.365025807,0.76118744,2.56369417,-1.45700443,0.14309771,0.19103423,-0.09713098,0.08458478,0.48268119,0.17946911
0.68,0.17665615,-1.67171217,1.364254807,0.76186412,2.5675132,-1.45557848,0.13927159,0.18758508,-0.09557847,0.08453679,0.47191024,0.17693687
0.688,0.17775422,-1.67022681,1.363497197,0.76253923,2.57124206,-1.45417473,0.13520674,0.18367794,-0.09378482,0.08419079,0.46013988,0.17392096
0.696,0.17881882,-1.66877455,1.362754897,0.76321038,2.57487277,-1.45279704,0.13090316,0.17931282,-0.09175005,0.08354678,0.4473701,0.17042137
0.704,0.17984803,-1.66735903,1.362029837,0.76387519,2.57839732,-1.45144928,0.12636086,0.17448972,-0.08947416,0.08260477,0.43360091,0.1664381
0.712,0.18083995,-1.66598393,1.361323947,0.76453126,2.58180772,-1.45013532,0.12157982,0.16920864,-0.08695715,0.08136475,0.4188323,0.16197115
0.72,0.18179267,-1.66465291,1.360639167,0.76517623,2.58509597,-1.44885903,0.11656006,0.16346957,-0.08419901,0.07982672,0.40306428,0.15702053
0.728,0.18270428,-1.66336964,1.359977407,0.76580769,2.58825408,-1.44762428,0.11130157,0.15727253,-0.08119974,0.07799069,0.38629685,0.15158624
0.736,0.18357286,-1.66213777,1.359340617,0.76642328,2.59127406,-1.44643494,0.10580435,0.1506175,-0.07795935,0.07585665,0.36853,0.14566826
0.744,0.18439651,-1.66096098,1.358730707,0.76702061,2.5941479,-1.44529488,0.1000684,0.14350449,-0.07447784,0.0734246,0.34976373,0.13926661
0.752,0.18517332,-1.65984292,1.358149607,0.76759728,2.59686761,-1.44420796,0.09409372,0.13593349,-0.0707552,0.07069455,0.32999805,0.13238129
0.76,0.18590137,-1.65878727,1.357599267,0.76815092,2.5994252,-1.44317807,0.08788032,0.12790452,-0.06679144,0.06766649,0.30923296,0.12501228
0.768,0.18657914,-1.6577971,1.357081297,0.76867944,2.60181404,-1.4422085,0.08160834,0.1196941,-0.06272672,0.06447957,0.28813037,0.11743142
0.776,0.18720806,-1.65687094,1.356595037,0.76918303,2.60403847,-1.44129805,0.07568259,0.11192357,-0.05887596,0.06144645,0.26817746,0.11024942
0.784,0.18779102,-1.65600509,1.356138687,0.76966302,2.6061081,-1.44044338,0.07011827,0.10461628,-0.055251,0.05857887,0.24943013,0.10348924
0.792,0.18833092,-1.65519584,1.355710427,0.77012074,2.60803257,-1.4396411,0.06491537,0.09777222,-0.05185183,0.05587683,0.23188838,0.09715087
0.8,0.18883063,-1.6544395,1.355308447,0.77055749,2.60982153,-1.43888784,0.06007391,0.0913914,-0.04867846,0.05334034,0.2155522,0.09123431
0.808,0.18929306,-1.65373235,1.354930967,0.77097462,2.61148462,-1.43818023,0.05559388,0.08547382,-0.04573088,0.05096939,0.2004216,0.08573956
0.816,0.1897211,-1.65307068,1.354576157,0.77137345,2.61303149,-1.43751488,0.05147528,0.08001947,-0.0430091,0.04876397,0.18649657,0.08066663
0.824,0.19011763,-1.6524508,1.354242217,0.77175529,2.61447178,-1.43688844,0.04771811,0.07502836,-0.04051311,0.04672411,0.17377712,0.07601551
0.832,0.19048555,-1.65186899,1.353927347,0.77212147,2.61581513,-1.43629751,0.04432238,0.07050049,-0.03824292,0.04484978,0.16226325,0.07178621
0.84,0.19082775,-1.65132156,1.353629727,0.77247333,2.6170712,-1.43573873,0.04128807,0.06643585,-0.03619852,0.043141,0.15195495,0.06797872
0.848,0.19114713,-1.65080478,1.353347567,0.77281217,2.61824963,-1.43520873,0.03861519,0.06283444,-0.03437992,0.04159775,0.14285222,0.06459304
0.856,0.19144656,-1.65031497,1.353079047,0.77313933,2.61936005,-1.43470412,0.03630375,0.05969628,-0.03278712,0.04022006,0.13495507,0.06162918
0.864,0.19172895,-1.64984841,1.352822367,0.77345613,2.62041212,-1.43422153,0.03435373,0.05702135,-0.0314201,0.0390079,0.1282635,0.05908713
0.872,0.19199718,-1.64940139,1.352575727,0.7737639,2.62141548,-1.4337576,0.03276515,0.05480966,-0.03027889,0.03796128,0.1227775,0.05696689
0.88,0.19225416,-1.64897022,1.352337307,0.77406395,2.62237978,-1.43330894,0.03153799,0.0530612,-0.02936347,0.03708021,0.11849708,0.05526846
0.888,0.19250276,-1.64855118,1.352105307,0.77435762,2.62331465,-1.43287218,0.03067227,0.05177598,-0.02867385,0.03636468,0.11542223,0.05399185
0.896,0.19274588,-1.64814057,1.351877917,0.77464623,2.62422975,-1.43244394,0.03016798,0.05095399,-0.02821002,0.03581469,0.11355296,0.05313706
0.904,0.19298641,-1.64773468,1.351653347,0.7749311,2.62513472,-1.43202086,0.03002512,0.05059525,-0.02797198,0.03543025,0.11288926,0.05270407
0.912,0.19322724,-1.64732981,1.351429767,0.77521356,2.62603919,-1.43159955,0.03024369,0.05069973,-0.02795974,0.03521134,0.11343114,0.0526929
0.92,0.19347116,-1.64692233,1.351205407,0.77549498,2.62695253,-1.43117667,0.03076478,0.05122722,-0.02816008,0.0351896,0.11502394,0.05309314
0.928,0.19371986,-1.64650934,1.350978737,0.77577734,2.62788126,-1.43074904,0.03143418,0.05207238,-0.02853837,0.03544777,0.11726277,0.05387755
0.936,0.19397448,-1.64608834,1.350748327,0.77606291,2.6288304,-1.43031361,0.03224381,0.05322968,-0.02909281,0.03599018,0.12012645,0.05504471
0.944,0.19423613,-1.64565683,1.350512777,0.77635395,2.62980495,-1.42986731,0.03319368,0.05469913,-0.0298234,0.03681685,0.12361497,0.05659462
0.952,0.19450595,-1.64521232,1.350270687,0.77665273,2.6308099,-1.42940707,0.03428378,0.05648074,-0.03073014,0.03792776,0.12772833,0.05852727
0.96,0.19478505,-1.6447523,1.350020627,0.77696155,2.63185027,-1.42892985,0.03551411,0.05857449,-0.03181302,0.03932293,0.13246653,0.06084267
0.968,0.19507455,-1.64427429,1.349761207,0.77728266,2.63293103,-1.42843257,0.03688468,0.06098039,-0.03307205,0.04100234,0.13782957,0.06354082
0.976,0.19537558,-1.64377579,1.349491007,0.77761834,2.63405721,-1.42791218,0.03839548,0.06369845,-0.03450722,0.042966,0.14381745,0.06662172
0.984,0.19568925,-1.64325429,1.349208617,0.77797087,2.63523378,-1.4273656,0.04004652,0.06672865,-0.03611854,0.04521392,0.15043017,0.07008536
0.992,0.19601669,-1.64270729,1.348912637,0.77834252,2.63646575,-1.42678979,0.04183778,0.07007101,-0.03790601,0.04774608,0.15766774,0.07393175
1,0.19635903,-1.64213232,1.348601657,0.77873557,2.63775813,-1.42618167,0.04376928,0.07372551,-0.03986963,0.05056249,0.16553014,0.07816089
1.008,0.19671738,-1.64152685,1.348274257,0.77915228,2.6391159,-1.42553819,0.04584102,0.07769217,-0.04200939,0.05366314,0.17401739,0.08277278
1.016,0.19709286,-1.64088841,1.347929037,0.77959494,2.64054407,-1.42485629,0.04805299,0.08197097,-0.0443253,0.05704805,0.18312948,0.08776741
1.024,0.1974866,-1.64021449,1.347564577,0.78006581,2.64204764,-1.4241329,0.05040519,0.08656193,-0.04681736,0.06071721,0.1928664,0.09314479
1.032,0.19789972,-1.63950259,1.347179487,0.78056717,2.6436316,-1.42336495,0.05289762,0.09146504,-0.04948556,0.06467061,0.20322817,0.09890492
1.04,0.19833334,-1.63875021,1.346772347,0.7811013,2.64530096,-1.4225494,0.05553029,0.09668029,-0.05232991,0.06890827,0.21421478,0.10504779
1.048,0.19878858,-1.63795487,1.346341737,0.78167046,2.64706071,-1.42168317,0.0583032,0.1022077,-0.05535041,0.07343017,0.22582623,0.11157342
1.056,0.19926656,-1.63711406,1.345886267,0.78227694,2.64891584,-1.4207632,0.06121633,0.10804725,-0.05854705,0.07823632,0.23806253,0.11848179
1.064,0.19976841,-1.63622528,1.345404517,0.782923,2.65087137,-1.41978644,0.0642697,0.11419896,-0.06191984,0.08332672,0.25092366,0.1257729
1.072,0.20029511,-1.63528629,1.344895217,0.78361076,2.65293173,-1.41875007,0.06738484,0.12052579,-0.06539238,0.08861086,0.26410383,0.13330541
1.08,0.20084606,-1.63429757,1.344358627,0.78434052,2.65509528,-1.41765411,0.07032218,0.12660935,-0.06873139,0.09381238,0.27666937,0.14064771
1.088,0.20141974,-1.63326127,1.343795917,0.78511148,2.65735663,-1.4165003,0.0730651,0.13242061,-0.0719207,0.0989121,0.28855547,0.14776986
1.096,0.20201459,-1.63217957,1.343208287,0.78592284,2.65971035,-1.41529038,0.0756136,0.13795958,-0.07496029,0.10391002,0.29976215,0.15467185
1.104,0.20262904,-1.63105464,1.342596947,0.78677377,2.66215101,-1.41402613,0.07796768,0.14322625,-0.07785016,0.10880614,0.31028939,0.16135369
1.112,0.20326155,-1.62988867,1.341963087,0.78766347,2.66467317,-1.41270931,0.08012734,0.14822062,-0.08059033,0.11360046,0.3201372,0.16781537
1.12,0.20391056,-1.62868384,1.341307907,0.78859111,2.66727139,-1.41134167,0.08209257,0.15294269,-0.08318078,0.11829299,0.32930558,0.1740569
1.128,0.20457451,-1.62744232,1.340632597,0.78955588,2.66994025,-1.40992499,0.08386339,0.15739246,-0.08562152,0.12288372,0.33779452,0.18007827
1.136,0.20525186,-1.62616628,1.339938357,0.79055698,2.6726743,-1.40846101,0.08543978,0.16156994,-0.08791255,0.12737265,0.34560404,0.18587948
1.144,0.20594103,-1.62485792,1.339226397,0.79159357,2.6754681,-1.4069515,0.08682175,0.16547511,-0.09005387,0.13175978,0.35273412,0.19146054
1.152,0.20664049,-1.62351941,1.338497897,0.79266486,2.67831623,-1.40539823,0.0880093,0.16910799,-0.09204548,0.13604511,0.35918478,0.19682145
1.16,0.20734866,-1.62215292,1.337754067,0.79377002,2.68121325,-1.40380295,0.08900243,0.17246857,-0.09388737,0.14022864,0.364956,0.2019622
1.168,0.20806401,-1.62076064,1.336996097,0.79490825,2.68415371,-1.40216742,0.08980113,0.17555685,-0.09557955,0.14431038,0.37004778,0.20688279
1.176,0.20878496,-1.61934474,1.336225187,0.79607872,2.6871322,-1.40049341,0.09040542,0.17837283,-0.09712202,0.14829031,0.37446014,0.21158323
1.184,0.20950997,-1.6179074,1.335442547,0.79728062,2.69014326,-1.39878267,0.09081528,0.18091652,-0.09851478,0.15216845,0.37819307,0.21606351
1.192,0.21023749,-1.6164508,1.334649357,0.79851314,2.69318148,-1.39703698,0.09103072,0.1831879,-0.09975783,0.15594479,0.38124656,0.22032364
1.2,0.21096595,-1.61497712,1.333846817,0.79977547,2.6962414,-1.39525808,0.09105174,0.18518699,-0.10085116,0.15961933,0.38362062,0.22436361
1.208,0.2116938,-1.61348853,1.333036137,0.80106678,2.69931759,-1.39344775,0.09087834,0.18691378,-0.10179478,0.16319208,0.38531525,0.22818343
1.216,0.21241948,-1.61198722,1.332218497,0.80238627,2.70240463,-1.39160774,0.09051051,0.18836827,-0.10258869,0.16666302,0.38633045,0.23178309
1.224,0.21314151,-1.61047529,1.331395077,0.80373317,2.70549727,-1.38973971,0.0899838,0.18959852,-0.10325682,0.17006221,0.38678425,0.23521663
1.232,0.21385916,-1.60895376,1.330566487,0.80510738,2.70859287,-1.38784417,0.08942502,0.19077609,-0.1038846,0.1734969,0.38709799,0.23867693
1.24,0.21457225,-1.60742297,1.329733007,0.80650924,2.71169056,-1.38592077,0.08884545,0.1919162,-0.10447962,0.17697662,0.38730909,0.24218111
1.248,0.21528063,-1.6058832,1.328894897,0.80793912,2.71478954,-1.38396915,0.08824509,0.19301887,-0.10504188,0.18050135,0.38741755,0.24572919
1.256,0.21598412,-1.60433477,1.328052427,0.80939738,2.71788897,-1.38198898,0.08762393,0.1940841,-0.10557138,0.18407111,0.38742337,0.24932115
1.264,0.21668256,-1.60277796,1.327205847,0.81088438,2.72098804,-1.3799799,0.08698197,0.19511187,-0.10606812,0.1876859,0.38732655,0.252957
1.272,0.21737577,-1.60121308,1.326355427,0.81240048,2.72408592,-1.37794155,0.08631922,0.1961022,-0.10653209,0.1913457,0.3871271,0.25663673
1.28,0.21806361,-1.59964042,1.325501417,0.81394603,2.7271818,-1.37587359,0.08563567,0.19705508,-0.1069633,0.19505054,0.386825,0.26036036
1.288,0.21874589,-1.59806029,1.324644097,0.8155214,2.73027485,-1.37377567,0.08493133,0.19797051,-0.10736176,0.19880039,0.38642027,0.26412788
1.296,0.21942245,-1.59647299,1.323783717,0.81712696,2.73336425,-1.37164743,0.0842062,0.19884849,-0.10772745,0.20259527,0.3859129,0.26793928
1.304,0.22009313,-1.59487882,1.322920547,0.81876305,2.73644918,-1.36948852,0.08346026,0.19968903,-0.10806038,0.20643517,0.38530289,0.27179458
1.312,0.22075776,-1.59327807,1.322054837,0.82043004,2.73952882,-1.3672986,0.08269354,0.20049211,-0.10836054,0.2103201,0.38459025,0.27569376
1.32,0.22141618,-1.59167104,1.321186867,0.82212829,2.74260235,-1.36507731,0.08190602,0.20125775,-0.10862795,0.21425005,0.38377496,0.27963683
1.328,0.2220682,-1.59005804,1.320316877,0.82385816,2.74566895,-1.36282429,0.0810977,0.20198595,-0.1088626,0.21822502,0.38285704,0.28362379
1.336,0.22271368,-1.58843937,1.319445147,0.82562001,2.74872779,-1.36053921,0.08026859,0.20267669,-0.10906448,0.22224502,0.38183648,0.28765464
1.344,0.22335245,-1.58681532,1.318571937,0.8274142,2.75177806,-1.3582217,0.07941868,0.20332999,-0.10923361,0.22631004,0.38071328,0.29172937
1.352,0.22398433,-1.58518619,1.317697497,0.82924109,2.75481893,-1.35587142,0.07854798,0.20394584,-0.10936997,0.23042009,0.37948744,0.295848
1.36,0.22460916,-1.58355228,1.316822107,0.83110104,2.75784958,-1.35348802,0.07765649,0.20452424,-0.10947357,0.23457516,0.37815897,0.30001051
1.368,0.22522677,-1.5819139,1.315946007,0.83299441,2.7608692,-1.35107114,0.07674419,0.20506519,-0.10954441,0.23877525,0.37672785,0.30421691
1.376,0.22583699,-1.58027143,1.315069527,0.83492139,2.76387683,-1.34862064,0.07580087,0.20550982,-0.10955569,0.24290681,0.37511305,0.30833233
1.384,0.22643938,-1.5786267,1.314193597,0.83687939,2.76686955,-1.34613967,0.07478362,0.20561144,-0.10939511,0.24649397,0.37297494,0.31179162
1.392,0.22703332,-1.57698264,1.313319697,0.8388637,2.76984293,-1.34363389,0.07368768,0.20534271,-0.10905024,0.249484,0.37027588,0.31453215
1.4,0.22761818,-1.57534221,1.312449287,0.84086954,2.77279247,-1.34110907,0.07251305,0.20470362,-0.10852106,0.25187689,0.36701588,0.31655392
1.408,0.22819332,-1.57370837,1.311583847,0.84289214,2.77571369,-1.33857095,0.07125974,0.20369419,-0.10780759,0.25367266,0.36319493,0.31785693
1.416,0.22875812,-1.57208409,1.310724857,0.84492671,2.77860209,-1.33602528,0.06992775,0.20231439,-0.10690982,0.25487129,0.35881303,0.31844117
1.424,0.22931195,-1.57047233,1.309873777,0.84696848,2.7814532,-1.33347781,0.06851707,0.20056425,-0.10582774,0.25547279,0.35387018,0.31830666
1.432,0.22985419,-1.56887605,1.309032097,0.84901268,2.78426252,-1.33093429,0.06702771,0.19844375,-0.10456137,0.25547715,0.34836638,0.31745338
1.44,0.23038419,-1.56729821,1.308201287,0.85105453,2.78702557,-1.32840047,0.06545966,0.1959529,-0.1031107,0.25488439,0.34230164,0.31588134
1.448,0.23090133,-1.56574179,1.307382827,0.85308924,2.78973785,-1.3258821,0.06381293,0.1930917,-0.10147572,0.25369449,0.33567595,0.31359053
1.456,0.23140499,-1.56420973,1.306578167,0.85511205,2.79239489,-1.32338494,0.06208752,0.18986014,-0.09965645,0.25190746,0.32848931,0.31058097
1.464,0.23189452,-1.56270501,1.305788807,0.85711817,2.79499218,-1.32091472,0.06028341,0.18625823,-0.09765288,0.2495233,0.32074173,0.30685264
1.472,0.23236931,-1.56123059,1.305016217,0.85910283,2.79752526,-1.31847721,0.05840063,0.18228597,-0.09546501,0.24654201,0.3124332,0.30240555
1.48,0.23282872,-1.55978943,1.304261857,0.86106125,2.79998962,-1.31607815,0.05643916,0.17794335,-0.09309284,0.24296358,0.30356372,0.29723971
1.488,0.23327213,-1.55838448,1.303527227,0.86298865,2.80238078,-1.31372329,0.054399,0.17323038,-0.09053637,0.23878802,0.29413329,0.29135509
1.496,0.2336989,-1.55701873,1.302813767,0.86488026,2.80469426,-1.31141839,0.05228016,0.16814706,-0.0877956,0.23401533,0.28414191,0.28475172
1.504,0.2341084,-1.55569512,1.302122987,0.8667313,2.80692556,-1.30916918,0.05008264,0.16269339,-0.08487053,0.22864551,0.27358959,0.27742959
1.512,0.23450001,-1.55441662,1.301456337,0.868537,2.80907019,-1.30698143,0.04780643,0.15686936,-0.08176116,0.22267856,0.26247632,0.26938869
1.52,0.23487309,-1.5531862,1.300815297,0.87029257,2.81112368,-1.30486088,0.04545154,0.15067498,-0.07846749,0.21611447,0.2508021,0.26062903
1.528,0.23522707,-1.55200664,1.300201257,0.87199347,2.81308181,-1.302813,0.04305051,0.14422377,-0.07504707,0.20910975,0.23875728,0.25134651
1.536,0.23556224,-1.55087769,1.299614067,0.87363937,2.81494551,-1.30083795,0.04076442,0.13807747,-0.07178467,0.20243874,0.22728365,0.24251045
1.544,0.23587967,-1.54979639,1.299052187,0.87523366,2.81672021,-1.29893129,0.0386151,0.13231227,-0.06871891,0.19620646,0.21650897,0.23425232
1.552,0.23618045,-1.54875968,1.298514037,0.87677984,2.81841152,-1.29708837,0.03660257,0.12692817,-0.0658498,0.19041293,0.20643321,0.22657211
1.56,0.23646567,-1.54776452,1.297998057,0.87828143,2.82002501,-1.29530459,0.03472681,0.12192517,-0.06317732,0.18505813,0.1970564,0.21946984
1.568,0.23673644,-1.54680786,1.297502677,0.87974194,2.82156628,-1.29357532,0.03298784,0.11730326,-0.06070148,0.18014207,0.18837852,0.21294549
1.576,0.23699384,-1.54588665,1.297026317,0.88116488,2.82304093,-1.29189592,0.03138564,0.11306245,-0.05842229,0.17566475,0.18039957,0.20699908
1.584,0.23723897,-1.54499784,1.296567397,0.88255375,2.82445454,-1.29026179,0.02992022,0.10920274,-0.05633974,0.17162617,0.17311957,0.20163059
1.592,0.23747293,-1.54413839,1.296124357,0.88391206,2.82581271,-1.28866829,0.02859159,0.10572413,-0.05445383,0.16802633,0.1665385,0.19684003
1.6,0.2376968,-1.54330524,1.295695607,0.88524334,2.82712102,-1.28711081,0.02739973,0.10262662,-0.05276456,0.16486522,0.16065637,0.1926274
1.608,0.23791169,-1.54249535,1.295279597,0.88655108,2.82838507,-1.28558471,0.02634465,0.0999102,-0.05127193,0.16214285,0.15547317,0.18899269
1.616,0.23811868,-1.54170566,1.294874737,0.88783879,2.82961045,-1.28408538,0.02542635,0.09757488,-0.04997594,0.15985922,0.15098891,0.18593592
1.624,0.23831888,-1.54093313,1.294479457,0.88911,2.83080276,-1.2826082,0.02464483,0.09562066,-0.04887659,0.15801433,0.14720359,0.18345708
1.632,0.23851337,-1.54017472,1.294092187,0.89036819,2.83196757,-1.28114853,0.02400009,0.09404754,-0.04797389,0.15660817,0.1441172,0.18155616
1.64,0.23870324,-1.53942736,1.293711347,0.8916169,2.8331105,-1.27970176,0.02349212,0.09285551,-0.04726782,0.15564076,0.14172975,0.18023318
1.648,0.2388896,-1.53868801,1.293335377,0.89285962,2.83423711,-1.27826326,0.02312094,0.09204458,-0.0467584,0.15511208,0.14004124,0.17948812
1.656,0.23907354,-1.53795363,1.292962687,0.89409986,2.83535302,-1.27682841,0.02288654,0.09161475,-0.04644562,0.15502214,0.13905166,0.17932099
1.664,0.23925615,-1.53722116,1.292591717,0.89534114,2.83646381,-1.27539258,0.02278891,0.09156602,-0.04632948,0.15537093,0.13876103,0.17973179
1.672,0.23943853,-1.53648755,1.292220897,0.89658696,2.83757506,-1.27395116,0.02282807,0.09189839,-0.04640998,0.15615847,0.13916932,0.18072052
1.68,0.23962175,-1.5357498,1.291848657,0.89784085,2.8386923,-1.27249952,0.02298969,0.09258787,-0.04667168,0.15738991,0.14021636,0.18228409
1.688,0.23980645,-1.5350056,1.291473927,0.89910647,2.8398192,-1.27103313,0.02318943,0.09349325,-0.04702367,0.15909569,0.14154757,0.18440436
1.696,0.23999284,-1.53425339,1.291096077,0.90038766,2.84095766,-1.26954757,0.02341352,0.09459141,-0.04745109,0.1612808,0.14310496,0.18707834
1.704,0.24018113,-1.53349163,1.290714507,0.90168825,2.84210948,-1.2680384,0.02366193,0.09588236,-0.04795391,0.16394522,0.14488852,0.19030604
1.712,0.2403715,-1.53271876,1.290328617,0.90301206,2.84327648,-1.2665012,0.02393469,0.09736609,-0.04853216,0.16708897,0.14689827,0.19408746
1.72,0.24056415,-1.53193326,1.289937797,0.90436295,2.84446046,-1.26493152,0.02423178,0.09904261,-0.04918582,0.17071204,0.14913419,0.19842259
1.728,0.24075927,-1.53113357,1.289541437,0.90574473,2.84566323,-1.26332496,0.0245532,0.10091192,-0.0499149,0.17481443,0.15159628,0.20331145
1.736,0.24095707,-1.53031815,1.289138957,0.90716126,2.8468866,-1.26167707,0.02489897,0.10297401,-0.0507194,0.17939615,0.15428456,0.20875402
1.744,0.24115772,-1.52948547,1.288729727,0.90861635,2.84813239,-1.25998342,0.02526906,0.10522889,-0.05159931,0.18445718,0.15719901,0.21475032
1.752,0.24136144,-1.52863397,1.288313167,0.91011385,2.84940239,-1.25823958,0.0256635,0.10767656,-0.05255464,0.18999754,0.16033965,0.22130033
1.76,0.2415684,-1.52776213,1.287888657,0.91165759,2.85069842,-1.25644113,0.02608227,0.11031701,-0.05358539,0.19601721,0.16370646,0.22840406
1.768,0.24177882,-1.52686839,1.287455597,0.9132514,2.8520223,-1.25458364,0.02652537,0.11315025,-0.05469156,0.20251621,0.16729944,0.23606151
1.776,0.24199287,-1.52595121,1.287013387,0.91489913,2.85337582,-1.25266267,0.02699281,0.11617628,-0.05587314,0.20949453,0.17111861,0.24427267
1.784,0.24221077,-1.52500905,1.286561427,0.91660459,2.8547608,-1.2506738,0.02748459,0.11939509,-0.05713014,0.21695218,0.17516395,0.25303756
1.792,0.24243269,-1.52404038,1.286099107,0.91837164,2.85617905,-1.2486126,0.0280007,0.12280669,-0.05846256,0.22488914,0.17943547,0.26235616
1.8,0.24265884,-1.52304363,1.285625827,0.9202041,2.85763237,-1.24647463,0.02854115,0.12641108,-0.05987039,0.23330543,0.18393316,0.27222849
1.808,0.24288941,-1.52201728,1.285140977,0.9221058,2.85912258,-1.24425546,0.02910593,0.13020825,-0.06135364,0.24220103,0.18865704,0.28265453
1.816,0.2431246,-1.52095979,1.284643967,0.92408059,2.86065148,-1.24195068,0.02969505,0.13419821,-0.06291231,0.25157596,0.19360709,0.29363429
1.824,0.2433646,-1.5198696,1.284134177,0.9261323,2.8622209,-1.23955584,0.03030851,0.13838096,-0.06454639,0.26143021,0.19878332,0.30516777
1.832,0.24360959,-1.51874522,1.283611047,0.92826468,2.86383256,-1.23706661,0.03093863,0.14272005,-0.06623636,0.27170117,0.20413236,0.31718262
1.84,0.24385951,-1.51758641,1.283074647,0.93047934,2.86548638,-1.23448112,0.03153107,0.14695726,-0.06784383,0.28194526,0.20927612,0.32916634
1.848,0.24411396,-1.51639431,1.282525837,0.9327755,2.86718023,-1.23180029,0.03207522,0.15104223,-0.06934179,0.29207594,0.21414083,0.34101892
1.856,0.24437258,-1.51517014,1.281965477,0.93515225,2.86891188,-1.22902517,0.03257109,0.15497496,-0.07073024,0.30209321,0.21872649,0.35274038
1.864,0.24463497,-1.51391512,1.281394447,0.93760869,2.87067911,-1.2261568,0.03301867,0.15875543,-0.0720092,0.31199707,0.2230331,0.3643307
1.872,0.24490075,-1.51263046,1.280813617,0.9401439,2.87247967,-1.22319623,0.03341797,0.16238366,-0.07317865,0.32178751,0.22706066,0.37578989
1.88,0.24516953,-1.51131739,1.280223877,0.94275699,2.87431134,-1.22014451,0.03376899,0.16585964,-0.07423859,0.33146454,0.23080917,0.38711795
1.888,0.24544093,-1.50997711,1.279626097,0.94544703,2.87617187,-1.21700269,0.03407172,0.16918338,-0.07518903,0.34102816,0.23427863,0.39831488
1.896,0.24571455,-1.50861086,1.279021147,0.94821313,2.87805905,-1.21377182,0.03432616,0.17235487,-0.07602997,0.35047837,0.23746905,0.40938067
1.904,0.24599001,-1.50721984,1.278409907,0.95105438,2.87997063,-1.21045295,0.03453232,0.17537411,-0.0767614,0.35981517,0.24038042,0.42031534
1.912,0.24626694,-1.50580528,1.277793257,0.95396988,2.88190439,-1.20704713,0.03469019,0.17824111,-0.07738333,0.36903855,0.24301273,0.43111887
1.92,0.24654493,-1.50436839,1.277172067,0.9569587,2.88385809,-1.2035554,0.03479978,0.18095585,-0.07789575,0.37814853,0.245366,0.44179127
1.928,0.2468236,-1.50291039,1.276547217,0.96001995,2.8858295,-1.19997881,0.03486109,0.18351835,-0.07829867,0.38714509,0.24744022,0.45233255
1.936,0.24710258,-1.5014325,1.275919577,0.96315272,2.88781639,-1.19631843,0.03487411,0.18592861,-0.07859209,0.39602824,0.24923539,0.46274269
1.944,0.24738146,-1.49993594,1.275290037,0.9663561,2.88981653,-1.19257528,0.03483884,0.18818662,-0.078776,0.40479797,0.25075152,0.47302169
1.952,0.24765987,-1.49842192,1.274659457,0.96962918,2.89182767,-1.18875043,0.03475529,0.19029238,-0.07885041,0.4134543,0.25198859,0.48316957
1.96,0.24793742,-1.49689167,1.274028717,0.97297106,2.8938476,-1.18484492,0.03462345,0.19224589,-0.07881532,0.42199721,0.25294662,0.49318632
1.968,0.24821372,-1.49534639,1.273398697,0.97638084,2.89587407,-1.1808598,0.03444333,0.19404716,-0.07867072,0.43042672,0.25362559,0.50307193
1.976,0.24848838,-1.49378732,1.272770277,0.97985759,2.89790486,-1.17679612,0.03421493,0.19569618,-0.07841662,0.43874281,0.25402552,0.51282642
1.984,0.24876103,-1.49221565,1.272144327,0.98340045,2.89993776,-1.17265489,0.03394169,0.19720249,-0.07805294,0.44697002,0.25416327,0.52248235
1.992,0.24903142,-1.49063222,1.271521727,0.98700949,2.9019712,-1.16843584,0.03365339,0.19864859,-0.07757913,0.4553204,0.25418465,0.53232133
2,0.24929946,-1.48903738,1.270903357,0.99068603,2.90400449,-1.16413709,0.03335693,0.20005348,-0.07699506,0.46384287,0.25412328,0.54240831
2.008,0.24956511,-1.48743147,1.270290097,0.99443144,2.90603696,-1.15975664,0.03305228,0.20141718,-0.07630071,0.47253742,0.25397918,0.5527433
2.016,0.24982828,-1.48581482,1.269682837,0.99824709,2.90806794,-1.15529253,0.03273946,0.20273968,-0.0754961,0.48140405,0.25375234,0.56332629
2.024,0.25008892,-1.48418775,1.269082457,1.00213436,2.91009677,-1.15074276,0.03241846,0.20402098,-0.07458122,0.49044277,0.25344276,0.57415729
2.032,0.25034695,-1.48255059,1.268489827,1.00609463,2.9121228,-1.14610535,0.03208929,0.20526109,-0.07355608,0.49965357,0.25305044,0.58523629
2.04,0.25060232,-1.48090368,1.267905847,1.01012928,2.91414536,-1.14137832,0.03175194,0.20646,-0.07242066,0.50903646,0.25257539,0.5965633
2.048,0.25085496,-1.47924734,1.267331397,1.01423967,2.91616379,-1.13655968,0.03140641,0.20761771,-0.07117498,0.51859143,0.25201759,0.60813831
2.056,0.2511048,-1.47758191,1.266767347,1.0184272,2.91817742,-1.13164745,0.0310527,0.20873422,-0.06981903,0.52831848,0.25137706,0.61996133
2.064,0.25135178,-1.4759077,1.266214587,1.02269323,2.9201856,-1.12663964,0.03069082,0.20980954,-0.06835281,0.53821762,0.25065379,0.63203236
2.072,0.25159583,-1.47422506,1.265673997,1.02703914,2.92218766,-1.12153427,0.03032077,0.21084366,-0.06677633,0.54828885,0.24984778,0.64435139
2.08,0.25183689,-1.47253431,1.265146457,1.03146631,2.92418294,-1.11632935,0.02994253,0.21183658,-0.06508958,0.55853215,0.24895903,0.65691842
2.088,0.25207489,-1.47083579,1.264632857,1.03597611,2.92617078,-1.11102291,0.02955612,0.21278831,-0.06329256,0.56894755,0.24798755,0.66973346
2.096,0.25230977,-1.46912981,1.264134067,1.04056993,2.92815052,-1.10561296,0.02916154,0.21369884,-0.06138528,0.57953502,0.24693332,0.6827965
2.104,0.25254146,-1.46741672,1.263650987,1.04524913,2.9301215,-1.10009751,0.02875877,0.21456817,-0.05936772,0.59029459,0.24579636,0.69610755
2.112,0.25276989,-1.46569683,1.263184477,1.0500151,2.93208304,-1.09447457,0.02834784,0.21539631,-0.0572399,0.60122623,0.24457666,0.70966661
2.12,0.252995,-1.46397048,1.262735437,1.05486921,2.9340345,-1.08874218,0.02792872,0.21618324,-0.05500181,0.61232996,0.24327422,0.72347367
2.128,0.25321673,-1.46223801,1.262304747,1.05981284,2.93597521,-1.08289833,0.02750143,0.21692899,-0.05265346,0.62360578,0.24188904,0.73752873
2.136,0.253435,-1.46049975,1.261893277,1.06484727,2.93790449,-1.07694118,0.02706542,0.21761399,-0.05020216,0.6349571,0.24040851,0.75171229
2.144,0.25364973,-1.45875696,1.261501557,1.06996931,2.9398211,-1.07087436,0.02661486,0.21802856,-0.04772654,0.64534737,0.23869727,0.76474151
2.152,0.25386079,-1.45701217,1.261129657,1.07516951,2.94172294,-1.06470932,0.02614819,0.21811583,-0.04524792,0.65449554,0.23671861,0.7762686
2.16,0.25406806,-1.45526798,1.260777597,1.08043793,2.94360788,-1.05845807,0.02566539,0.21787581,-0.04276629,0.66240161,0.23447253,0.78629356
2.168,0.2542714,-1.45352703,1.260445407,1.08576463,2.94547378,-1.05213263,0.02516648,0.21730849,-0.04028165,0.66906559,0.23195904,0.79481639
2.176,0.25447068,-1.45179192,1.260133097,1.09113967,2.94731851,-1.04574501,0.02465144,0.21641388,-0.03779402,0.67448748,0.22917814,0.80183709
2.184,0.25466578,-1.45006528,1.259840707,1.09655311,2.94913992,-1.03930724,0.02412028,0.21519197,-0.03530338,0.67866727,0.22612982,0.80735566
2.192,0.25485656,-1.44834972,1.259568257,1.10199503,2.95093588,-1.03283133,0.023573,0.21364277,-0.03280973,0.68160496,0.22281408,0.8113721
2.2,0.2550429,-1.44664787,1.259315757,1.10745548,2.95270423,-1.02632929,0.0230096,0.21176627,-0.03031308,0.68330056,0.21923092,0.8138864
2.208,0.25522467,-1.44496233,1.259083247,1.11292453,2.95444286,-1.01981315,0.02243008,0.20956248,-0.02781342,0.68375407,0.21538035,0.81489858
2.216,0.25540174,-1.44329574,1.258870757,1.11839223,2.95614961,-1.01329492,0.02183444,0.20703139,-0.02531076,0.68296548,0.21126237,0.81440862
2.224,0.25557398,-1.4416507,1.258678287,1.12384866,2.95782234,-1.00678662,0.02122267,0.20417301,-0.0228051,0.6809348,0.20687697,0.81241654
2.232,0.25574126,-1.44002984,1.258505877,1.12928388,2.95945892,-1.00030026,0.02059479,0.20098734,-0.02029643,0.67766202,0.20222415,0.80892232
2.24,0.25590345,-1.43843578,1.258353557,1.13468794,2.96105722,-0.99384786,0.01995078,0.19747437,-0.01778476,0.67314714,0.19730392,0.80392597
2.248,0.25606043,-1.43687113,1.258221327,1.14005092,2.96261507,-0.98744145,0.01929065,0.1936341,-0.01527008,0.66739018,0.19211627,0.7974275
2.256,0.25621206,-1.43533851,1.258109237,1.14536287,2.96413036,-0.98109303,0.01861441,0.18946654,-0.0127524,0.66039111,0.18666121,0.78942689
2.264,0.25635822,-1.43384053,1.258017297,1.15061387,2.96560094,-0.97481462,0.01792204,0.18497169,-0.01023171,0.65214995,0.18093873,0.77992415
2.272,0.25649877,-1.43237983,1.257945537,1.15579396,2.96702467,-0.96861825,0.01721355,0.18014954,-0.00770802,0.6426667,0.17494883,0.76891928
2.28,0.25663359,-1.43095901,1.257893977,1.16089322,2.96839941,-0.96251592,0.01648894,0.17500009,-0.00518132,0.63194135,0.16869152,0.75641228
2.288,0.25676255,-1.42958067,1.257862647,1.16590181,2.96972305,-0.95651954,0.01575108,0.16955708,-0.00265438,0.62008899,0.16219942,0.74254281
2.296,0.25688569,-1.42824553,1.257851397,1.17081626,2.97099528,-0.95063326,0.01503918,0.16428116,-0.00016488,0.60868135,0.1559182,0.72921833
2.304,0.25700328,-1.42695134,1.257859877,1.17564323,2.97221868,-0.94484898,0.01436569,0.15931844,0.00227523,0.59821696,0.14998921,0.71704386
2.312,0.25711564,-1.4256956,1.257887667,1.18039025,2.97339605,-0.93915749,0.01373061,0.15466892,0.00466595,0.58869583,0.14441246,0.7060194
2.32,0.25722308,-1.4244758,1.257934397,1.18506487,2.97453022,-0.9335496,0.01313393,0.1503326,0.00700727,0.58011796,0.13918793,0.69614496
2.328,0.25732589,-1.42328944,1.257999657,1.18967465,2.975624,-0.92801611,0.01257566,0.14630948,0.0092992,0.57248335,0.13431564,0.68742054
2.336,0.25742439,-1.42213401,1.258083057,1.19422712,2.97668021,-0.92254781,0.01205579,0.14259956,0.01154174,0.56579199,0.12979559,0.67984613
2.344,0.25751888,-1.42100701,1.258184197,1.19872984,2.97770167,-0.9171355,0.01157432,0.13920285,0.01373488,0.56004389,0.12562776,0.67342173
2.352,0.25760968,-1.41990593,1.258302677,1.20319034,2.97869119,-0.91176999,0.01113127,0.13611933,0.01587864,0.55523905,0.12181217,0.66814735
2.36,0.25769709,-1.41882827,1.258438117,1.20761618,2.9796516,-0.90644208,0.01072661,0.13334902,0.01797299,0.55137747,0.11834882,0.66402298
2.368,0.25778141,-1.41777151,1.258590117,1.2120149,2.98058571,-0.90114256,0.01036037,0.13089191,0.02001796,0.54845915,0.11523769,0.66104862
2.376,0.25786295,-1.41673316,1.258758277,1.21639404,2.98149634,-0.89586223,0.01003252,0.128748,0.02201353,0.54648408,0.1124788,0.65922428
2.384,0.25794203,-1.41571071,1.258942197,1.22076116,2.98238631,-0.8905919,0.00974309,0.12691729,0.02395972,0.54545227,0.11007214,0.65854996
2.392,0.25801895,-1.41470165,1.259141497,1.22512379,2.98325844,-0.88532237,0.00949205,0.12539979,0.0258565,0.54536372,0.10801772,0.65902565
2.4,0.25809401,-1.41370348,1.259355777,1.22948949,2.98411553,-0.88004442,0.00927943,0.12419548,0.0277039,0.54621842,0.10631553,0.66065135
2.408,0.25816752,-1.41271369,1.259584627,1.2338658,2.98496042,-0.87474888,0.0091052,0.12330438,0.0295019,0.54801638,0.10496557,0.66342706
2.416,0.25823979,-1.41172977,1.259827667,1.23826027,2.98579592,-0.86942653,0.00896939,0.12272648,0.03125051,0.55075761,0.10396784,0.6673528
2.424,0.25831113,-1.41074923,1.260084507,1.24268044,2.98662485,-0.86406817,0.00887198,0.12246178,0.03294972,0.55444208,0.10332235,0.67242854
2.432,0.25838185,-1.40976955,1.260354737,1.24713386,2.98745002,-0.8586646,0.00881297,0.12251028,0.03459955,0.55906982,0.10302909,0.6786543
2.44,0.25845224,-1.40878824,1.260637977,1.25162807,2.98827424,-0.85320663,0.00879085,0.12286142,0.03621095,0.56463553,0.10307495,0.6860263
2.448,0.25852252,-1.40780352,1.260934587,1.25617025,2.98909943,-0.84768532,0.00877831,0.12332553,0.03798092,0.5710443,0.1032244,0.69447668
2.456,0.25859269,-1.40681492,1.261246287,1.26076693,2.98992588,-0.8420922,0.00876525,0.12383242,0.03998237,0.578261,0.10339031,0.70398033
2.464,0.25866276,-1.40582209,1.261574927,1.26542458,2.99075372,-0.83641883,0.00875167,0.12438209,0.04221529,0.58628563,0.10357265,0.71453727
2.472,0.25873272,-1.40482469,1.261922347,1.27014966,2.99158308,-0.83065679,0.00873756,0.12497454,0.04467969,0.59511821,0.10377143,0.72614747
2.48,0.25880256,-1.40382238,1.262290417,1.27494862,2.9924141,-0.82479766,0.00872294,0.12560977,0.04737555,0.60475871,0.10398666,0.73881096
2.488,0.25887228,-1.40281482,1.262680977,1.27982795,2.99324691,-0.81883301,0.00870779,0.12628778,0.05030289,0.61520715,0.10421834,0.75252772
2.496,0.25894188,-1.40180166,1.263095877,1.28479409,2.99408164,-0.81275441,0.00869212,0.12700858,0.05346171,0.62646353,0.10446645,0.76729775
2.504,0.25901136,-1.40078257,1.263536977,1.28985352,2.99491842,-0.80655344,0.00867593,0.12777215,0.056852,0.63852784,0.10473101,0.78312106
2.512,0.2590807,-1.39975719,1.264006127,1.29501269,2.99575738,-0.80022166,0.00865922,0.1285785,0.06047376,0.65140009,0.10501201,0.79999765
2.52,0.2591499,-1.3987252,1.264505177,1.30027808,2.99659866,-0.79375067,0.00864199,0.12942763,0.064327,0.66508027,0.10530945,0.81792752
2.528,0.25921897,-1.39768624,1.265035977,1.30565613,2.99744238,-0.78713201,0.00862424,0.13031955,0.06841171,0.67956839,0.10562334,0.83691065
2.536,0.25928789,-1.39663997,1.265600377,1.31115333,2.99828867,-0.78035729,0.00860596,0.13125424,0.07272789,0.69486444,0.10595367,0.85694707
2.544,0.25935666,-1.39558605,1.266200237,1.31677612,2.99913768,-0.77341805,0.00858717,0.13223172,0.07727555,0.71096842,0.10630044,0.87803676
2.552,0.25942528,-1.39452415,1.266837407,1.32253097,2.99998953,-0.76630589,0.00856785,0.13325197,0.08205468,0.72788035,0.10666365,0.90017973
2.56,0.25949374,-1.39345391,1.267513737,1.32842436,3.00084434,-0.75901237,0.00854801,0.134315,0.08706528,0.7456002,0.10704331,0.92337597
2.568,0.25956205,-1.39237499,1.268231067,1.33446273,3.00170226,-0.75152906,0.00852765,0.13542082,0.09230736,0.76412799,0.10743941,0.94762549
2.576,0.25963019,-1.39128706,1.268991267,1.34065256,3.00256342,-0.74384755,0.00850676,0.13656941,0.09778091,0.78346372,0.10785195,0.97292828
2.584,0.25969815,-1.39018977,1.269796177,1.34700031,3.00342794,-0.7359594,0.00848536,0.13776079,0.10348594,0.80360738,0.10828094,0.99928435
2.592,0.25976595,-1.38908278,1.270647657,1.35351242,3.00429595,-0.72785621,0.00846323,0.13898814,0.10942226,0.82453216,0.10872246,1.02666113
2.6,0.25983355,-1.38796636,1.271547537,1.36019296,3.00516725,-0.71953247,0.0084354,0.14008309,0.11558546,0.84557514,0.10907986,1.05425363
2.608,0.2599009,-1.386842,1.272497627,1.36704117,3.0060409,-0.71098851,0.00839971,0.14097304,0.12197363,0.86645046,0.10931148,1.08171471
2.616,0.25996792,-1.38571133,1.273499717,1.37405572,3.00691589,-0.70222538,0.00835617,0.141658,0.12858678,0.88715811,0.10941731,1.10904436
2.624,0.26003457,-1.38457601,1.274555617,1.38123525,3.00779124,-0.69324415,0.00830477,0.14213796,0.13542491,0.9076981,0.10939735,1.1362426
2.632,0.26010078,-1.38343767,1.275667117,1.38857844,3.00866592,-0.68404585,0.00824551,0.14241292,0.14248801,0.92807042,0.10925161,1.16330941
2.64,0.26016648,-1.38229795,1.276836027,1.39608393,3.00953893,-0.67463155,0.00817841,0.14248288,0.14977609,0.94827508,0.10898007,1.19024481
2.648,0.26023161,-1.38115849,1.278064137,1.40375039,3.01040926,-0.66500228,0.00810344,0.14234785,0.15728914,0.96831208,0.10858275,1.21704878
2.656,0.26029611,-1.38002094,1.279353247,1.41157648,3.01127592,-0.65515912,0.00802062,0.14200782,0.16502717,0.98818141,0.10805964,1.24372133
2.664,0.26035992,-1.37888692,1.280705167,1.41956085,3.01213788,-0.64510309,0.00792995,0.14146279,0.17299018,1.00788308,0.10741074,1.27026246
2.672,0.26042297,-1.37775808,1.282121697,1.42770216,3.01299415,-0.63483527,0.00783142,0.14071277,0.18117816,1.02741708,0.10663605,1.29667217
2.68,0.2604852,-1.37663606,1.283604617,1.43599908,3.01384372,-0.62435669,0.00772503,0.13975774,0.18959111,1.04678342,0.10573558,1.32295046
2.688,0.26054655,-1.3755225,1.285155747,1.44445025,3.01468559,-0.61366841,0.00761079,0.13859772,0.19822904,1.06598209,0.10470931,1.34909733
2.696,0.26060696,-1.37441904,1.286776887,1.45305434,3.01551874,-0.60277148,0.0074887,0.13723271,0.20709195,1.0850131,0.10355726,1.37511278
2.704,0.26066635,-1.37332732,1.288469817,1.46181001,3.01634217,-0.59166696,0.00735875,0.13566269,0.21617983,1.10387644,0.10227942,1.40099681
2.712,0.26072467,-1.37224899,1.290236357,1.47071592,3.01715487,-0.58035588,0.00722094,0.13388768,0.22549269,1.12257212,0.10087579,1.42674941
2.72,0.26078186,-1.37118567,1.292078307,1.47977072,3.01795584,-0.56883932,0.00707528,0.13190767,0.23503052,1.14110014,0.09934637,1.4523706
2.728,0.26083786,-1.37013901,1.293997447,1.48897307,3.01874408,-0.55711831,0.00692177,0.12972267,0.24479333,1.15946049,0.09769117,1.47786036
2.736,0.26089259,-1.36911065,1.295995597,1.49832164,3.01951857,-0.5451939,0.0067604,0.12733266,0.25478112,1.17765318,0.09591017,1.50321871
2.744,0.260946,-1.36810223,1.298074547,1.50781507,3.02027831,-0.53306716,0.00659127,0.12473811,0.26498875,1.19567212,0.09400416,1.5284347
2.752,0.26099804,-1.36711534,1.300235457,1.51745128,3.02102238,-0.52074049,0.00641788,0.12195505,0.27522935,1.21329587,0.09200107,1.55311032
2.76,0.26104868,-1.36615143,1.302478057,1.52722646,3.0217501,-0.50821937,0.00624199,0.11899158,0.285409,1.2304131,0.08991496,1.57704551
2.768,0.26109791,-1.36521196,1.304801837,1.53713654,3.0224608,-0.49550973,0.0060636,0.11584769,0.2955277,1.24702383,0.08774583,1.60024025
2.776,0.26114569,-1.36429835,1.307206337,1.54717749,3.02315381,-0.4826175,0.0058827,0.11252337,0.30558545,1.26312805,0.08549368,1.62269456
2.784,0.26119202,-1.36341206,1.309691047,1.55734524,3.02382848,-0.4695486,0.00569931,0.10901864,0.31558224,1.27872576,0.08315851,1.64440842
2.792,0.26123688,-1.36255453,1.312255487,1.56763575,3.02448413,-0.45630894,0.00551341,0.10533349,0.32551808,1.29381697,0.08074031,1.66538185
2.8,0.26128023,-1.36172721,1.314899167,1.57804496,3.0251201,-0.44290446,0.00532502,0.10146792,0.33539296,1.30840166,0.07823909,1.68561484
2.808,0.26132207,-1.36093153,1.317621607,1.58856882,3.02573573,-0.42934108,0.00513412,0.09742193,0.34520689,1.32247985,0.07565484,1.7051074
2.816,0.26136237,-1.36016894,1.320422317,1.59920329,3.02633036,-0.41562472,0.00494072,0.09319552,0.35495987,1.33605152,0.07298758,1.72385951
2.824,0.26140111,-1.35944088,1.323300807,1.6099443,3.02690331,-0.4017613,0.00474482,0.08878869,0.36465189,1.34911669,0.07023729,1.74187118
2.832,0.26143828,-1.3587488,1.326256587,1.6207878,3.02745393,-0.38775675,0.00454641,0.08420144,0.37428296,1.36167535,0.06740398,1.75914242
2.84,0.26147385,-1.35809414,1.329289167,1.63172975,3.02798155,-0.373617,0.00434551,0.07943377,0.38385308,1.3737275,0.06448765,1.77567322
2.848,0.2615078,-1.35747834,1.332398077,1.64276609,3.02848551,-0.35934796,0.0041421,0.07448568,0.39336225,1.38527314,0.06148829,1.79146358
2.856,0.26154012,-1.35690285,1.335582807,1.65389277,3.02896514,-0.34495555,0.0039362,0.06935717,0.40281046,1.39631228,0.05840591,1.8065135
2.864,0.26157078,-1.35636911,1.338842877,1.66510574,3.02941979,-0.33044571,0.00372779,0.06404824,0.41219771,1.4068449,0.05524051,1.82082298
2.872,0.26159976,-1.35587856,1.342177807,1.67640094,3.02984877,-0.31582436,0.00351688,0.05855889,0.42152402,1.41687102,0.05199209,1.83439202
2.88,0.26162704,-1.35543265,1.345587097,1.68777433,3.03025144,-0.30109742,0.00330347,0.05288913,0.43078937,1.42639063,0.04866064,1.84722063
2.888,0.2616526,-1.35503281,1.349070277,1.69922184,3.03062712,-0.28627081,0.00308756,0.04703894,0.43999376,1.43540372,0.04524618,1.85930879
2.896,0.26167643,-1.3546805,1.352626837,1.71073943,3.03097516,-0.27135046,0.00286923,0.04101256,0.44912655,1.44389176,0.04175049,1.87063212
2.904,0.26169852,-1.35437635,1.356254267,1.7223195,3.03129522,-0.25634695,0.00265347,0.0350627,0.45755082,1.45074522,0.03828133,1.87973175
2.912,0.2617189,-1.3541189,1.359944757,1.73394525,3.0315879,-0.24128297,0.00244321,0.02933771,0.4648927,1.45531282,0.03490196,1.88575133
2.92,0.26173763,-1.35390635,1.363689657,1.74559841,3.03185389,-0.22618314,0.00223846,0.02383758,0.47115219,1.45759457,0.03161236,1.88869086
2.928,0.26175473,-1.3537369,1.367480307,1.75726067,3.03209393,-0.21107213,0.0020392,0.01856232,0.47632929,1.45759046,0.02841255,1.88855035
2.936,0.26177027,-1.35360875,1.371308047,1.76891376,3.03230873,-0.19597455,0.00184544,0.01351193,0.480424,1.45530049,0.02530252,1.88532979
2.944,0.26178427,-1.35352011,1.375164207,1.78053938,3.03249901,-0.18091506,0.00165719,0.0086864,0.48343632,1.45072468,0.02228227,1.87902918
2.952,0.2617968,-1.35346917,1.379040137,1.79211926,3.03266549,-0.1659183,0.00147443,0.00408574,0.48536626,1.443863,0.0193518,1.86964853
2.96,0.26180788,-1.35345414,1.382927177,1.8036351,3.03280888,-0.1510089,0.00129718,-0.00029006,0.4862138,1.43471547,0.01651111,1.85718782
2.968,0.26181757,-1.35347321,1.386816677,1.81506861,3.03292991,-0.13621151,0.00112543,-0.00444099,0.48597896,1.42328209,0.01376021,1.84164708
2.976,0.2618259,-1.35352459,1.390699957,1.82640151,3.03302928,-0.12155076,0.00095917,-0.00836705,0.48466172,1.40956285,0.01109908,1.82302628
2.984,0.26183293,-1.35360648,1.394568377,1.83761552,3.03310773,-0.1070513,0.00079842,-0.01206825,0.4822621,1.39355775,0.00852774,1.80132544
2.992,0.26183869,-1.35371709,1.398413267,1.84869234,3.03316597,-0.09273777,0.00064317,-0.01554458,0.47878008,1.3752668,0.00604618,1.77654455
3,0.26184323,-1.3538546,1.402225967,1.85961369,3.03320471,-0.0786348,0.00049342,-0.01879604,0.47421568,1.35469,0.0036544,1.74868361
3.008,0.2618466,-1.35401722,1.405997827,1.87036129,3.03322468,-0.06476704,0.00034917,-0.02182264,0.46856889,1.33182734,0.0013524,1.71774262
3.016,0.26184884,-1.35420316,1.409720187,1.88091684,3.03322659,-0.05115913,0.00021042,-0.02462438,0.46183971,1.30667882,-0.00085982,1.68372159
3.024,0.26184998,-1.35441061,1.413384377,1.89126205,3.03321116,-0.03783571,0.00007717,-0.02720125,0.45402814,1.27924445,-0.00298225,1.64662051
3.032,0.26185008,-1.35463778,1.416981747,1.90137865,3.03317911,-0.02482142,-0.00005058,-0.02955325,0.44513418,1.24952423,-0.00501491,1.60643939
3.04,0.26184919,-1.35488287,1.420503637,1.91124835,3.03313116,-0.01214089,-0.00017283,-0.03168038,0.43515783,1.21751815,-0.00695778,1.56317822
3.048,0.26184733,-1.35514407,1.423941387,1.92085285,3.03306803,0.00018123,-0.00028958,-0.03358348,0.42410741,1.18324674,-0.00881105,1.51686441
3.056,0.26184457,-1.35541988,1.427289317,1.93018123,3.03299036,0.01213012,-0.00040217,-0.03536112,0.41297549,1.14916093,-0.01059587,1.47077101
3.064,0.26184091,-1.35570969,1.430550597,1.93924442,3.03289864,0.02372016,-0.00051149,-0.03708113,0.40244494,1.1169469,-0.0123268,1.42714977
3.072,0.26183639,-1.35601303,1.433730047,1.94805738,3.03279328,0.03497111,-0.00061755,-0.03874351,0.39251577,1.08660465,-0.01400384,1.3860007
3.08,0.26183104,-1.35632943,1.436832457,1.95663508,3.03267472,0.04590276,-0.00072035,-0.04034826,0.38318797,1.05813417,-0.01562699,1.34732379
3.088,0.26182487,-1.35665845,1.439862657,1.96499251,3.03254339,0.05653488,-0.00081988,-0.04189538,0.37446154,1.03153546,-0.01719624,1.31111905
3.096,0.26181793,-1.35699961,1.442825447,1.97314464,3.03239972,0.06688726,-0.00091614,-0.04338487,0.36633648,1.00680853,-0.01871161,1.27738646
3.104,0.26181022,-1.35735245,1.445725637,1.98110644,3.03224415,0.07697966,-0.00100915,-0.04481673,0.3588128,0.98395337,-0.02017308,1.24612605
3.112,0.26180179,-1.35771652,1.448568057,1.98889289,3.0320771,0.08683187,-0.00109888,-0.04619096,0.35189049,0.96296999,-0.02158066,1.21733779
3.12,0.26179265,-1.35809135,1.451357497,1.99651895,3.031899,0.09646366,-0.00118536,-0.04750756,0.34556955,0.94385838,-0.02293435,1.1910217
3.128,0.26178283,-1.35847649,1.454098767,2.00399961,3.03171029,0.10589481,-0.00126857,-0.04876653,0.33984998,0.92661855,-0.02423415,1.16717777
3.136,0.26177236,-1.35887146,1.456796697,2.01134984,3.0315114,0.11514509,-0.00134851,-0.04996787,0.33473179,0.91125049,-0.02548005,1.14580601
3.144,0.26176126,-1.35927582,1.459456087,2.01858461,3.03130275,0.1242343,-0.00142519,-0.05111158,0.33021497,0.89775421,-0.02667206,1.12690641
3.152,0.26174957,-1.3596891,1.462081737,2.0257189,3.03108479,0.13318219,-0.00149861,-0.05219766,0.32629952,0.8861297,-0.02781019,1.11047898
3.16,0.2617373,-1.36011083,1.464678477,2.03276768,3.03085793,0.14200855,-0.00156876,-0.05322611,0.32298545,0.87637697,-0.02889442,1.09652371
3.168,0.26172448,-1.36054056,1.467251107,2.03974592,3.03062262,0.15073316,-0.00163565,-0.05419693,0.32027275,0.86849601,-0.02992475,1.0850406
3.176,0.26171113,-1.36097783,1.469804447,2.04666861,3.03037928,0.15937579,-0.00169927,-0.05511012,0.31816142,0.86248683,-0.0309012,1.07602966
3.184,0.2616973,-1.36142217,1.472343297,2.0535507,3.03012835,0.16795623,-0.00175963,-0.05596567,0.31665146,0.85834942,-0.03182376,1.06949088
3.192,0.26168299,-1.36187312,1.474872477,2.06040719,3.02987025,0.17649424,-0.00181673,-0.0567636,0.31574288,0.85608379,-0.03269242,1.06542426
3.2,0.26166824,-1.36233023,1.477396787,2.06725304,3.02960541,0.18500961,-0.00187057,-0.05750402,0.31543481,0.85568737,-0.03350734,1.06382633
3.208,0.26165306,-1.36279316,1.479920137,2.07410052,3.02933412,0.19351842,-0.00192494,-0.05823232,0.31540597,0.85620602,-0.03432434,1.06339664
3.216,0.26163743,-1.36326202,1.482443337,2.08095271,3.0290561,0.20202426,-0.00198293,-0.05898531,0.31539583,0.856866,-0.03518867,1.06308065
3.224,0.26162132,-1.36373699,1.484966517,2.08781075,3.02877097,0.21052802,-0.00204453,-0.05976298,0.31540438,0.8576673,-0.03610035,1.06287836
3.232,0.26160471,-1.36421829,1.487489857,2.09467576,3.02847836,0.21903061,-0.00210973,-0.06056534,0.31543163,0.85860993,-0.03705936,1.06278977
3.24,0.26158756,-1.3647061,1.490013477,2.10154888,3.0281779,0.22753296,-0.00217855,-0.06139239,0.31547758,0.85969388,-0.03806571,1.06281489
3.248,0.26156984,-1.36520063,1.492537547,2.10843124,3.02786919,0.23603596,-0.00225097,-0.06224412,0.31554223,0.86091916,-0.0391194,1.0629537
3.256,0.26155153,-1.36570207,1.495062207,2.11532397,3.02755186,0.24454052,-0.002327,-0.06312054,0.31562557,0.86228577,-0.04022043,1.06320622
3.264,0.2615326,-1.36621063,1.497587607,2.12222819,3.02722553,0.25304756,-0.00240665,-0.06402164,0.31572762,0.8637937,-0.04136879,1.06357244
3.272,0.26151301,-1.36672649,1.500113897,2.12914504,3.02688983,0.26155798,-0.0024899,-0.06494743,0.31584836,0.86544296,-0.0425645,1.06405235
3.28,0.26149275,-1.36724985,1.502641227,2.13607566,3.02654438,0.2700727,-0.00257676,-0.06589791,0.3159878,0.86723355,-0.04380754,1.06464597
3.288,0.26147178,-1.36778092,1.505169747,2.14302116,3.02618878,0.27859262,-0.00266723,-0.06687307,0.31614593,0.86916546,-0.04509793,1.06535329
3.296,0.26145007,-1.36831989,1.507699607,2.14998268,3.02582268,0.28711866,-0.00276131,-0.06787292,0.31632277,0.8712387,-0.04643565,1.06617432
3.304,0.26142759,-1.36886695,1.510230967,2.15696135,3.02544569,0.29565171,-0.002859,-0.06889746,0.3165183,0.87345326,-0.04782071,1.06710904
3.312,0.26140431,-1.36942231,1.512763957,2.16395831,3.02505742,0.3041927,-0.0029603,-0.06994668,0.31673253,0.87580915,-0.04925311,1.06815746
3.32,0.26138021,-1.36998616,1.515298737,2.17097468,3.02465751,0.31274254,-0.00306521,-0.07102059,0.31696545,0.87830637,-0.05073284,1.06931959
3.328,0.26135526,-1.37055871,1.517835447,2.17801159,3.02424557,0.32130212,-0.00317373,-0.07211918,0.31721708,0.88094491,-0.05225992,1.07059542
3.336,0.26132942,-1.37114014,1.520374257,2.18507017,3.02382123,0.32987237,-0.00328585,-0.07324247,0.3174874,0.88372478,-0.05383433,1.07198494
3.344,0.26130268,-1.37173065,1.522915297,2.19215156,3.0233841,0.33845418,-0.00340159,-0.07439043,0.31777642,0.88664597,-0.05545608,1.07348817
3.352,0.26127499,-1.37233045,1.525458727,2.19925688,3.0229338,0.34704848,-0.00352093,-0.07556308,0.31808413,0.88970847,-0.05712517,1.07510508
3.36,0.26124633,-1.3729396,1.528004447,2.2063866,3.02247005,0.35565541,-0.00364246,-0.07671334,0.31831956,0.89266074,-0.05881201,1.07655451
3.368,0.26121671,-1.37355768,1.530551417,2.21353852,3.02199284,0.36427218,-0.00376479,-0.07779582,0.31839503,0.89526039,-0.06048806,1.07756554
3.376,0.2611861,-1.37418415,1.533098347,2.22070982,3.02150227,0.37289529,-0.00388792,-0.07881053,0.31831055,0.89750742,-0.06215335,1.07813815
3.384,0.2611545,-1.37481847,1.535643957,2.22789769,3.02099842,0.38152122,-0.00401186,-0.07975746,0.31806611,0.89940183,-0.06380786,1.07827236
3.392,0.2611219,-1.37546009,1.538186977,2.23509931,3.02048137,0.39014648,-0.0041366,-0.08063663,0.31766173,0.90094361,-0.0654516,1.07796816
3.4,0.26108831,-1.37610848,1.540726117,2.24231185,3.01995122,0.39876755,-0.00426214,-0.08144803,0.31709739,0.90213277,-0.06708456,1.07722555
3.408,0.26105371,-1.37676308,1.543260107,2.2495325,3.01940805,0.40738092,-0.00438848,-0.08219166,0.31637309,0.90296931,-0.06870675,1.07604453
3.416,0.26101809,-1.37742336,1.545787657,2.25675842,3.01885194,0.41598309,-0.00451563,-0.08286751,0.31548884,0.90345323,-0.07031817,1.0744251
3.424,0.26098146,-1.37808878,1.548307497,2.26398681,3.01828298,0.42457055,-0.00464359,-0.0834756,0.31444464,0.90358452,-0.07191881,1.07236727
3.432,0.26094379,-1.37875879,1.550818347,2.27121483,3.01770127,0.4331398,-0.00477234,-0.08401591,0.31324049,0.90336319,-0.07350868,1.06987102
3.44,0.2609051,-1.37943285,1.553318927,2.27843968,3.01710687,0.44168732,-0.0049019,-0.08448846,0.31187638,0.90278924,-0.07508778,1.06693637
3.448,0.26086536,-1.38011043,1.555807947,2.28565852,3.01649989,0.45020961,-0.00503226,-0.08489323,0.31035231,0.90186267,-0.0766561,1.0635633
3.456,0.26082458,-1.38079096,1.558284137,2.29286854,3.01588041,0.45870316,-0.00516343,-0.08523023,0.3086683,0.90058348,-0.07821365,1.05975183
3.464,0.26078274,-1.38147393,1.560746207,2.30006692,3.0152485,0.46716447,-0.0052954,-0.08549946,0.30682433,0.89895166,-0.07976042,1.05550195
3.472,0.26073985,-1.38215877,1.563192897,2.30725083,3.01460427,0.47559002,-0.00542817,-0.08570093,0.30482041,0.89696722,-0.08129643,1.05081366
3.48,0.26069589,-1.38284496,1.565622907,2.31441745,3.01394779,0.48397632,-0.00556175,-0.08583462,0.30265653,0.89463016,-0.08282165,1.04568696
3.488,0.26065086,-1.38353195,1.568034977,2.32156397,3.01327915,0.49231985,-0.00569613,-0.08590054,0.3003327,0.89194048,-0.08433611,1.04012185
3.496,0.26060475,-1.38421919,1.570427807,2.32868756,3.01259844,0.5006171,-0.00583131,-0.08589868,0.29784892,0.88889817,-0.08583979,1.03411834
3.504,0.26055756,-1.38490615,1.572800127,2.3357854,3.01190574,0.50886457,-0.00596729,-0.08582906,0.29520518,0.88550324,-0.08733269,1.02767641
3.512,0.26050927,-1.38559229,1.575150777,2.34285481,3.01120116,0.51705899,-0.00610375,-0.08569824,0.29244494,0.88180981,-0.08880707,1.02088808
3.52,0.2604599,-1.38627717,1.577479067,2.34989373,3.0104849,0.52519814,-0.00624028,-0.08551375,0.28961814,0.87788007,-0.09025402,1.01385911
3.528,0.26040943,-1.38696037,1.579784487,2.35690026,3.00975717,0.53328009,-0.00637689,-0.08527562,0.28672484,0.8737141,-0.09167352,1.00658962
3.536,0.26035787,-1.38764144,1.582066497,2.36387252,3.0090182,0.54130293,-0.00651358,-0.08498384,0.28376504,0.8693119,-0.09306557,0.99907961
3.544,0.26030521,-1.38831997,1.584324547,2.37080862,3.0082682,0.54926473,-0.00665035,-0.08463842,0.28073875,0.86467347,-0.09443017,0.99132909
3.552,0.26025146,-1.38899551,1.586558137,2.37770667,3.00750739,0.55716355,-0.0067872,-0.08423935,0.27764595,0.85979882,-0.09576733,0.98333804
3.56,0.26019661,-1.38966765,1.588766707,2.38456477,3.00673599,0.56499749,-0.00692413,-0.08378662,0.27448665,0.85468793,-0.09707704,0.97510649
3.568,0.26014067,-1.39033596,1.590949747,2.39138104,3.00595423,0.57276462,-0.00706113,-0.08328026,0.27126086,0.84934082,-0.09835931,0.96663441
3.576,0.26008364,-1.39099999,1.593106707,2.39815359,3.00516232,0.580463,-0.00719822,-0.08272024,0.26796856,0.84375747,-0.09961413,0.95792182
3.584,0.2600255,-1.39165934,1.595237067,2.40488053,3.00436048,0.58809072,-0.00733539,-0.08210658,0.26460977,0.8379379,-0.1008415,0.94896871
3.592,0.25996627,-1.39231356,1.597340287,2.41155997,3.00354893,0.59564586,-0.00747263,-0.08143926,0.26118448,0.8318821,-0.10204142,0.93977508
3.6,0.25990594,-1.39296222,1.599415837,2.41819002,3.00272789,0.60312648,-0.00760996,-0.0807183,0.25769269,0.82559007,-0.1032139,0.93034094
3.608,0.25984451,-1.39360491,1.601463187,2.42476878,3.00189758,0.61053067,-0.00774736,-0.0799437,0.25413439,0.81906181,-0.10435893,0.92066627
3.616,0.25978198,-1.39424118,1.603481807,2.43129438,3.00105822,0.6178565,-0.00788484,-0.07911544,0.2505096,0.81229732,-0.10547651,0.91075109
3.624,0.25971835,-1.39487061,1.605471167,2.43776491,3.00021003,0.62510205,-0.00802241,-0.07823354,0.24681831,0.8052966,-0.10656665,0.9005954
3.632,0.25965362,-1.39549277,1.607430727,2.44417849,2.99935322,0.63226539,-0.00816005,-0.07729799,0.24306053,0.79805965,-0.10762934,0.89019919
3.64,0.25958779,-1.39610723,1.609359957,2.45053323,2.99848803,0.6393446,-0.00829777,-0.07630879,0.23923624,0.79058647,-0.10866459,0.87956246
3.648,0.25952086,-1.39671357,1.611258327,2.45682724,2.99761466,0.64633775,-0.00843557,-0.07526595,0.23534545,0.78287707,-0.10967238,0.86868521
3.656,0.25945282,-1.39731135,1.613125307,2.46305864,2.99673335,0.65324292,-0.00857345,-0.07416946,0.23138816,0.77493143,-0.11065273,0.85756744
3.664,0.2593837,-1.39790015,1.614960327,2.46922516,2.99584445,0.66005785,-0.00870446,-0.07302261,0.2273498,0.76660177,-0.11154029,0.8460743
3.672,0.25931359,-1.39847959,1.616762637,2.4753227,2.99494919,0.66677861,-0.00881917,-0.07182987,0.22321054,0.75768722,-0.11224625,0.8340225
3.68,0.25924264,-1.3990493,1.618531427,2.48134659,2.994049,0.67340072,-0.00891751,-0.07059128,0.21897027,0.74818664,-0.1127701,0.821411
3.688,0.25917096,-1.39960892,1.620265887,2.48729213,2.99314535,0.6799197,-0.0089995,-0.06930682,0.21462899,0.73810004,-0.11311185,0.8082398
3.696,0.25909869,-1.40015809,1.621965217,2.49315463,2.9922397,0.68633107,-0.00906513,-0.0679765,0.21018671,0.7274274,-0.11327149,0.7945089
3.704,0.25902596,-1.40069643,1.623628607,2.4989294,2.99133349,0.69263035,-0.0091144,-0.06660032,0.20564342,0.71616873,-0.11324902,0.7802183
3.712,0.2589529,-1.40122357,1.625255247,2.50461176,2.9904282,0.69881307,-0.00914731,-0.06517828,0.20099912,0.70432404,-0.11304445,0.765368
3.72,0.25887965,-1.40173916,1.626844327,2.51019702,2.98952527,0.70487474,-0.00916386,-0.06371039,0.19625382,0.69189331,-0.11265778,0.749958
3.728,0.25880632,-1.40224282,1.628395037,2.51568049,2.98862616,0.7108109,-0.00916405,-0.06219663,0.19140751,0.67887656,-0.112089,0.7339883
3.736,0.25873306,-1.40273418,1.629906577,2.52105749,2.98773233,0.71661706,-0.00914788,-0.06063701,0.18646019,0.66527377,-0.11133811,0.7174589
3.744,0.25866,-1.40321288,1.631378127,2.52632331,2.98684523,0.72228875,-0.00911536,-0.05903153,0.18141186,0.65108496,-0.11040512,0.7003698
3.752,0.25858726,-1.40367856,1.632808897,2.53147328,2.98596633,0.72782149,-0.00906647,-0.05738019,0.17626253,0.63631011,-0.10929002,0.68272099
3.76,0.25851498,-1.40413085,1.634198067,2.53650271,2.98509708,0.73321079,-0.00900122,-0.05568298,0.17101219,0.62094924,-0.10799282,0.66451249
3.768,0.25844329,-1.40456937,1.635544817,2.54140691,2.98423893,0.73845219,-0.00891962,-0.05393992,0.16566084,0.60500234,-0.10651351,0.64574429
3.776,0.25837231,-1.40499376,1.636848367,2.54618118,2.98339335,0.74354121,-0.00882165,-0.052151,0.16020848,0.58846941,-0.10485209,0.62641639
3.784,0.25830218,-1.40540366,1.638107887,2.55082085,2.98256178,0.74847336,-0.00870733,-0.05031622,0.15465512,0.57135044,-0.10300858,0.60652878
3.792,0.25823304,-1.4057987,1.639322577,2.55532123,2.9817457,0.75324418,-0.00857665,-0.04843557,0.14900075,0.55364545,-0.10098295,0.58608148
3.8,0.258165,-1.40617851,1.640491627,2.55967762,2.98094654,0.75784918,-0.0084296,-0.04650907,0.14324537,0.53535443,-0.09877522,0.56507448
3.808,0.25809821,-1.40654272,1.641614237,2.56388534,2.98016578,0.76228388,-0.0082662,-0.0445367,0.13738899,0.51647738,-0.09638538,0.54350777
3.816,0.25803276,-1.4068911,1.642689947,2.56794111,2.97940457,0.76654531,-0.0080971,-0.0425734,0.1315849,0.49762049,-0.09393937,0.52202668
3.824,0.25796862,-1.40722416,1.643720397,2.57184993,2.97866236,0.77063931,-0.00793929,-0.04070684,0.12607781,0.47975137,-0.09163819,0.50166126
3.832,0.2579057,-1.40754267,1.644707987,2.5756198,2.97793796,0.7745749,-0.00779301,-0.03893815,0.12087088,0.46288256,-0.08948444,0.48242487
3.84,0.2578439,-1.40784743,1.645655127,2.57925872,2.97723021,0.77836112,-0.00765825,-0.03726733,0.11596413,0.44701407,-0.08747812,0.4643175
3.848,0.25778314,-1.40813921,1.646564217,2.58277469,2.97653792,0.78200699,-0.00753502,-0.03569438,0.11135755,0.43214589,-0.08561925,0.44733915
3.856,0.25772331,-1.4084188,1.647437647,2.58617572,2.97585991,0.78552156,-0.0074233,-0.03421931,0.10705113,0.41827803,-0.0839078,0.43148984
3.864,0.25766433,-1.40868698,1.648277837,2.58946981,2.975195,0.78891384,-0.00732311,-0.03284211,0.10304489,0.40541048,-0.0823438,0.41676955
3.872,0.25760611,-1.40894453,1.649087167,2.59266495,2.97454202,0.79219288,-0.00723445,-0.03156278,0.09933881,0.39354325,-0.08092723,0.40317828
3.88,0.25754855,-1.40919225,1.649868057,2.59576917,2.97389977,0.7953677,-0.0071573,-0.03038132,0.09593291,0.38267633,-0.07965809,0.39071605
3.888,0.25749156,-1.4094309,1.650622897,2.59879044,2.97326709,0.79844735,-0.00709168,-0.02929774,0.09282717,0.37280972,-0.07853639,0.37938283
3.896,0.25743506,-1.40966127,1.651354087,2.60173679,2.9726428,0.80144084,-0.00703759,-0.02831203,0.09002161,0.36394343,-0.07756213,0.36917865
3.904,0.25737893,-1.40988415,1.652064037,2.60461621,2.97202571,0.80435722,-0.00699501,-0.02742419,0.08751621,0.35607745,-0.0767353,0.36010349
3.912,0.2573231,-1.41010032,1.652755147,2.6074367,2.97141464,0.80720551,-0.00696396,-0.02663423,0.08531098,0.34921179,-0.07605591,0.35215736
3.92,0.25726748,-1.41031056,1.653429817,2.61020626,2.97080842,0.80999475,-0.00694443,-0.02594213,0.08340593,0.34334644,-0.07552395,0.34534025
3.928,0.25721196,-1.41051565,1.654090447,2.61293291,2.97020586,0.81273396,-0.00693643,-0.02534791,0.08180104,0.33848141,-0.07513943,0.33965217
3.936,0.25715646,-1.41071639,1.654739437,2.61562463,2.9696058,0.81543219,-0.00693994,-0.02485157,0.08049632,0.33461669,-0.07490234,0.33509312
3.944,0.25710089,-1.41091354,1.655379187,2.61828944,2.96900703,0.81809846,-0.00695498,-0.02445309,0.07949178,0.33175229,-0.07481269,0.33166309
3.952,0.25704515,-1.4111079,1.656012107,2.62093534,2.9684084,0.82074181,-0.00698155,-0.02415249,0.0787874,0.3298882,-0.07487048,0.32936209
3.96,0.25698916,-1.41130024,1.656640587,2.62357032,2.96780871,0.82337127,-0.00701963,-0.02394976,0.07838319,0.32902443,-0.0750757,0.32819011
3.968,0.25693281,-1.41149128,1.657266807,2.6262017,2.96720688,0.82599506,-0.007067,-0.02381083,0.07817834,0.32884705,-0.07539152,0.32778205
3.976,0.25687607,-1.41168121,1.657891457,2.62883211,2.96660234,0.82861597,-0.00711945,-0.02367209,0.07798466,0.32877015,-0.07574917,0.32745647
3.984,0.25681889,-1.41187003,1.658514587,2.63146225,2.96599478,0.83123454,-0.00717689,-0.02353209,0.07779789,0.32878042,-0.0761471,0.32719787
3.992,0.25676123,-1.41205772,1.659136247,2.63409283,2.96538388,0.83385131,-0.00723932,-0.02339085,0.07761801,0.32887785,-0.0765853,0.32700624
4,0.25670305,-1.41224428,1.659756487,2.63672453,2.96476931,0.83646682,-0.00730674,-0.02324835,0.07744504,0.32906245,-0.07706378,0.32688159
4.008,0.25664431,-1.41242969,1.660375387,2.63935806,2.96415075,0.83908159,-0.00737915,-0.0231046,0.07727897,0.32933421,-0.07758253,0.32682393
4.016,0.25658497,-1.41261395,1.660992977,2.64199411,2.96352788,0.84169618,-0.00745656,-0.02295959,0.07711981,0.32969313,-0.07814155,0.32683324
4.024,0.25652499,-1.41279704,1.661609317,2.64463338,2.96290038,0.8443111,-0.00753895,-0.02281333,0.07696754,0.33013922,-0.07874085,0.32690953
4.032,0.25646433,-1.41297896,1.662224477,2.64727657,2.96226792,0.84692691,-0.00762634,-0.02266582,0.07682218,0.33067246,-0.07938042,0.3270528
4.04,0.25640295,-1.41315969,1.662838487,2.64992438,2.96163019,0.84954413,-0.00771871,-0.02251705,0.07668371,0.33129288,-0.08006027,0.32726305
4.048,0.25634082,-1.41333923,1.663451427,2.65257749,2.96098685,0.8521633,-0.00781608,-0.02236704,0.07655215,0.33200045,-0.08078039,0.32754028
4.056,0.25627788,-1.41351756,1.664063347,2.65523662,2.96033759,0.85478495,-0.00791844,-0.02221577,0.0764275,0.33279519,-0.08154078,0.32788449
4.064,0.25621411,-1.41369468,1.664674287,2.65790245,2.95968209,0.85740963,-0.00802579,-0.02206324,0.07630974,0.3336771,-0.08234145,0.32829568
4.072,0.25614946,-1.41387057,1.665284317,2.66057568,2.95902002,0.86003786,-0.00813813,-0.02190946,0.07619889,0.33464616,-0.08318239,0.32877385
4.08,0.25608389,-1.41404523,1.665893487,2.66325702,2.95835106,0.86267019,-0.00825546,-0.02175443,0.07609493,0.33570239,-0.08406361,0.329319
4.088,0.25601736,-1.41421864,1.666501857,2.66594715,2.9576749,0.86530714,-0.00837778,-0.02159815,0.07599788,0.33684579,-0.08498509,0.32993112
4.096,0.25594983,-1.41439079,1.667109477,2.66864678,2.9569912,0.86794926,-0.00850509,-0.02144061,0.07590773,0.33807635,-0.08594686,0.33061023
4.104,0.25588126,-1.41456168,1.667716397,2.67135661,2.95629964,0.87059709,-0.00863739,-0.02128183,0.07582449,0.33939407,-0.0869489,0.33135631
4.112,0.25581162,-1.4147313,1.668322687,2.67407732,2.95559991,0.87325114,-0.00877468,-0.02112178,0.07574814,0.34079895,-0.08799121,0.33216938
4.12,0.25574086,-1.41489962,1.668928377,2.67680954,2.9548917,0.8759119,-0.00891586,-0.02095849,0.07567341,0.34225248,-0.08906175,0.33301542
4.128,0.25566896,-1.41506661,1.669533427,2.67955326,2.95417491,0.87857928,-0.00905849,-0.02078761,0.07558878,0.34367082,-0.09013431,0.33382045
4.136,0.25559592,-1.41523221,1.670137767,2.68230817,2.95344955,0.88125291,-0.00920251,-0.02060898,0.07549385,0.34505105,-0.09120796,0.33458187
4.144,0.25552172,-1.41539634,1.670741307,2.68507397,2.95271558,0.88393247,-0.00934791,-0.0204226,0.07538862,0.34639316,-0.09228272,0.3352997
4.152,0.25544635,-1.41555895,1.671343957,2.68785036,2.95197302,0.88661759,-0.00949468,-0.02022849,0.0752731,0.34769716,-0.09335858,0.33597393
4.16,0.2553698,-1.41571997,1.671945647,2.69063703,2.95122184,0.88930794,-0.00964284,-0.02002662,0.07514727,0.34896305,-0.09443555,0.33660455
4.168,0.25529206,-1.41587935,1.672546287,2.69343367,2.95046205,0.89200315,-0.00979237,-0.01981701,0.07501115,0.35019082,-0.09551361,0.33719158
4.176,0.25521312,-1.41603702,1.673145797,2.69623998,2.94969362,0.89470288,-0.00994329,-0.01959966,0.07486473,0.35138049,-0.09659278,0.33773501
4.184,0.25513296,-1.41619293,1.673744097,2.69905565,2.94891656,0.89740679,-0.01009558,-0.01937456,0.07470801,0.35253204,-0.09767304,0.33823485
4.192,0.25505158,-1.416347,1.674341097,2.70188039,2.94813085,0.90011453,-0.01024926,-0.01914172,0.07454099,0.35364548,-0.09875441,0.33869108
4.2,0.25496897,-1.41649917,1.674936727,2.70471388,2.94733649,0.90282573,-0.01040431,-0.01890113,0.07436368,0.35472081,-0.09983689,0.33910371
4.208,0.25488511,-1.41664939,1.675530887,2.70755582,2.94653346,0.90554007,-0.01056075,-0.0186528,0.07417606,0.35575802,-0.10092046,0.33947275
4.216,0.25479999,-1.4167976,1.676123517,2.71040591,2.94572176,0.90825718,-0.01071856,-0.01839672,0.07397815,0.35675713,-0.10200513,0.33979819
4.224,0.25471361,-1.41694372,1.676714517,2.71326383,2.94490137,0.91097672,-0.01087775,-0.0181329,0.07376993,0.35771812,-0.10309091,0.34008003
4.232,0.25462595,-1.4170877,1.677303807,2.7161293,2.9440723,0.91369835,-0.01103832,-0.01786134,0.07355142,0.358641,-0.10417779,0.34031826
4.24,0.25453699,-1.41722948,1.677891307,2.71900199,2.94323453,0.9164217,-0.01120028,-0.01758203,0.07332261,0.35952576,-0.10526577,0.34051291
4.248,0.25444674,-1.41736899,1.678476937,2.72188161,2.94238804,0.91914644,-0.01136361,-0.01729497,0.07308351,0.36037242,-0.10635485,0.34066395
4.256,0.25435517,-1.41750618,1.679060617,2.72476785,2.94153285,0.92187221,-0.01152832,-0.01700017,0.0728341,0.36118096,-0.10744503,0.34077139
4.264,0.25426228,-1.41764098,1.679642257,2.7276604,2.94066892,0.92459866,-0.01169441,-0.01669762,0.07257439,0.36195139,-0.10853631,0.34083524
4.272,0.25416806,-1.41777332,1.680221777,2.73055891,2.93979628,0.9273254,-0.01186083,-0.01638654,0.0723005,0.3626539,-0.10961832,0.34082735
4.28,0.25407251,-1.41790313,1.680798997,2.73346247,2.93891513,0.93005151,-0.01202494,-0.0160649,0.07200254,0.36321288,-0.11066471,0.34067637
4.288,0.25397567,-1.41803033,1.681373747,2.73636992,2.93802574,0.93277583,-0.01218659,-0.01573261,0.07168005,0.36362463,-0.1116742,0.3403788
4.296,0.25387754,-1.41815483,1.681945817,2.73928007,2.93712844,0.93549718,-0.0123458,-0.01538967,0.07133301,0.36388914,-0.11264678,0.33993464
4.304,0.25377814,-1.41827654,1.682515007,2.74219175,2.93622349,0.93821439,-0.01250255,-0.01503607,0.07096142,0.36400642,-0.11358245,0.33934389
4.312,0.2536775,-1.41839537,1.683081137,2.74510378,2.93531122,0.94092629,-0.01265686,-0.01467182,0.07056529,0.36397646,-0.11448122,0.33860654
4.32,0.25357564,-1.41851126,1.683643987,2.74801498,2.93439189,0.94363171,-0.01280871,-0.01429692,0.07014462,0.36379926,-0.11534308,0.3377226
4.328,0.25347257,-1.4186241,1.684203377,2.75092418,2.93346582,0.94632946,-0.01295812,-0.01391137,0.06969941,0.36347482,-0.11616804,0.33669206
4.336,0.25336831,-1.41873381,1.684759117,2.75383019,2.9325333,0.94901839,-0.01310507,-0.01351516,0.06922965,0.36300315,-0.11695609,0.33551494
4.344,0.25326289,-1.41884031,1.685310987,2.75673184,2.93159463,0.95169731,-0.01324958,-0.0131083,0.06873534,0.36238424,-0.11770723,0.33419122
4.352,0.25315633,-1.41894351,1.685858817,2.75962794,2.93065009,0.95436506,-0.01339163,-0.01269079,0.0682165,0.36161809,-0.11842147,0.33272091
4.36,0.25304863,-1.41904334,1.686402387,2.76251733,2.92969998,0.95702045,-0.01353124,-0.01226262,0.06767311,0.36070471,-0.11909881,0.331104
4.368,0.25293983,-1.41913969,1.686941517,2.76539883,2.9287446,0.95966233,-0.01366839,-0.01182381,0.06710517,0.35964409,-0.11973923,0.3293405
4.376,0.25282995,-1.41923249,1.687476007,2.76827125,2.92778425,0.96228951,-0.0138031,-0.01137434,0.0665127,0.35843623,-0.12034275,0.32743041
4.384,0.25271899,-1.41932165,1.688005657,2.77113341,2.92681922,0.96490083,-0.01393535,-0.01091421,0.06589567,0.35708113,-0.12090937,0.32537373
4.392,0.25260699,-1.41940709,1.688530267,2.77398415,2.9258498,0.9674951,-0.01406516,-0.01044344,0.06525411,0.3555788,-0.12143908,0.32317045
4.4,0.25249396,-1.41948872,1.689049657,2.77682228,2.92487629,0.97007116,-0.01419251,-0.00996201,0.064588,0.35392923,-0.12193188,0.32082058
4.408,0.25237991,-1.41956645,1.689563617,2.77964663,2.92389899,0.97262784,-0.01431742,-0.00946993,0.06389735,0.35213243,-0.12238778,0.31832412
4.416,0.25226488,-1.41964021,1.690071947,2.78245601,2.92291819,0.97516396,-0.01443987,-0.00896719,0.06318215,0.35018838,-0.12280677,0.31568106
4.424,0.25214889,-1.41970991,1.690574447,2.78524912,2.92193426,0.97767825,-0.01455358,-0.00845987,0.06243424,0.34802962,-0.12314688,0.31284014
4.432,0.2520321,-1.4197756,1.691070747,2.78802335,2.92094839,0.98016845,-0.01463995,-0.00796592,0.06162945,0.34545656,-0.12328394,0.30964974
4.44,0.25191473,-1.4198374,1.691560367,2.79077529,2.91996228,0.98263169,-0.01469776,-0.00748649,0.06076619,0.3424561,-0.1232098,0.30609989
4.448,0.25179701,-1.41989542,1.692042847,2.79350151,2.9189776,0.98506509,-0.01472699,-0.00702161,0.05984446,0.33902825,-0.12292447,0.30219061
4.456,0.25167918,-1.41994979,1.692517717,2.7961986,2.91799605,0.98746578,-0.01472766,-0.00657126,0.05886426,0.33517299,-0.12242794,0.29792188
4.464,0.25156145,-1.4200006,1.692984517,2.79886314,2.91701931,0.98983088,-0.01469976,-0.00613545,0.05782559,0.33089034,-0.12172021,0.29329371
4.472,0.25144406,-1.42004799,1.693442777,2.80149171,2.91604909,0.99215752,-0.0146433,-0.00571418,0.05672846,0.32618029,-0.12080129,0.2883061
4.48,0.25132723,-1.42009207,1.693892017,2.80408088,2.91508706,0.99444282,-0.01455827,-0.00530745,0.05557285,0.32104284,-0.11967117,0.28295905
4.488,0.2512112,-1.42013295,1.694331787,2.80662725,2.91413491,0.99668391,-0.01444467,-0.00491526,0.05435878,0.31547798,-0.11832985,0.27725256
4.496,0.25109619,-1.42017075,1.694761597,2.80912739,2.91319434,0.9988779,-0.0143025,-0.0045376,0.05308623,0.30948573,-0.11677734,0.27118662
4.504,0.25098244,-1.42020559,1.695181007,2.81157788,2.91226704,1.00102193,-0.01413177,-0.00417448,0.05175522,0.30306609,-0.11501363,0.26476125
4.512,0.25087016,-1.42023758,1.695589527,2.81397531,2.91135469,1.00311312,-0.01393247,-0.0038259,0.05036574,0.29621904,-0.11303872,0.25797643
4.52,0.25075959,-1.42026684,1.695986707,2.81631625,2.91045898,1.0051486,-0.01370461,-0.00349185,0.04891779,0.28894459,-0.11085262,0.25083218
4.528,0.25065096,-1.42029349,1.696372057,2.81859728,2.90958161,1.00712548,-0.01344817,-0.00317235,0.04741138,0.28124274,-0.10845532,0.24332848
4.536,0.2505445,-1.42031764,1.696745127,2.82081499,2.90872426,1.00904089,-0.01316318,-0.00286738,0.04584649,0.2731135,-0.10584682,0.23546534
4.544,0.25044043,-1.42033941,1.697105447,2.82296596,2.90788862,1.01089197,-0.01284961,-0.00257695,0.04422313,0.26455685,-0.10302713,0.22724275
4.552,0.25033898,-1.42035891,1.697452547,2.82504676,2.90707639,1.01267582,-0.01250748,-0.00230105,0.04254131,0.25557281,-0.09999624,0.21866073
4.56,0.25024038,-1.42037626,1.697785947,2.82705399,2.90628925,1.01438958,-0.01213678,-0.0020397,0.04080102,0.24616136,-0.09675415,0.20971927
4.568,0.25014487,-1.42039158,1.698105207,2.82898421,2.90552889,1.01603037,-0.01173751,-0.00179288,0.03900225,0.23632252,-0.09330087,0.20041836
4.576,0.25005264,-1.42040499,1.698409887,2.83083437,2.90479684,1.01759564,-0.01132088,-0.00155974,0.03717874,0.22626422,-0.08972412,0.1909441
4.584,0.24996367,-1.42041657,1.698700327,2.83260587,2.90409278,1.01908682,-0.01092555,-0.00133733,0.03544697,0.21670492,-0.08632701,0.1819394
4.592,0.24987777,-1.42042641,1.698977307,2.83430314,2.90341506,1.02050807,-0.0105548,-0.00112539,0.03381679,0.20770539,-0.08313518,0.17345868
4.6,0.24979473,-1.4204346,1.699241667,2.83593065,2.90276207,1.02186356,-0.01020862,-0.00092393,0.03228821,0.19926565,-0.08014864,0.16550192
4.608,0.24971436,-1.42044122,1.699494197,2.83749288,2.90213214,1.02315749,-0.00988703,-0.00073294,0.03086123,0.19138569,-0.07736739,0.15806914
4.616,0.24963647,-1.42044636,1.699735717,2.83899431,2.90152364,1.02439406,-0.00959002,-0.00055242,0.02953584,0.18406551,-0.07479143,0.15116032
4.624,0.24956086,-1.42045009,1.699967037,2.84043942,2.90093493,1.02557746,-0.00931759,-0.00038237,0.02831205,0.17730512,-0.07242075,0.14477547
4.632,0.24948732,-1.4204525,1.700188977,2.84183269,2.90036436,1.02671187,-0.00906974,-0.0002228,0.02718986,0.1711045,-0.07025535,0.13891459
4.64,0.24941568,-1.42045368,1.700402347,2.84317859,2.89981029,1.02780149,-0.00884647,-0.0000737,0.02616926,0.16546367,-0.06829525,0.13357768
4.648,0.24934571,-1.42045371,1.700607957,2.8444816,2.89927109,1.02885051,-0.00864778,0.00006492,0.02525026,0.16038262,-0.06654043,0.12876474
4.656,0.24927725,-1.42045267,1.700806627,2.8457462,2.8987451,1.02986312,-0.00847367,0.00019307,0.02443286,0.15586135,-0.06499089,0.12447577
4.664,0.24921007,-1.42045065,1.700999157,2.84697687,2.89823069,1.03084352,-0.00832414,0.00031075,0.02371706,0.15189986,-0.06364664,0.12071076
4.672,0.24914399,-1.42044773,1.701186367,2.84817809,2.89772621,1.03179589,-0.00819918,0.00041795,0.02310285,0.14849816,-0.06250768,0.11746973
4.68,0.24907882,-1.42044399,1.701369067,2.84935434,2.89723002,1.03272443,-0.00809881,0.00051468,0.02259024,0.14565624,-0.06157401,0.11475266
4.688,0.24901435,-1.42043952,1.701548077,2.85051008,2.89674048,1.03363333,-0.00802302,0.00060094,0.02217922,0.1433741,-0.06084562,0.11255956
4.696,0.24895038,-1.4204344,1.701724207,2.85164981,2.89625594,1.03452678,-0.00797181,0.00067672,0.0218698,0.14165174,-0.06032251,0.11089043
4.704,0.24888673,-1.42042872,1.701898267,2.852778,2.89577477,1.03540897,-0.00794518,0.00074203,0.02166198,0.14048916,-0.0600047,0.10974527
4.712,0.2488232,-1.42042256,1.702071067,2.85389913,2.89529532,1.0362841,-0.00794312,0.00079687,0.02155576,0.13988637,-0.05989217,0.10912408
4.72,0.24875958,-1.420416,1.702243427,2.85501768,2.89481595,1.03715636,-0.00796565,0.00084123,0.02155113,0.13984336,-0.05998492,0.10902686
4.728,0.24869569,-1.42040912,1.702416137,2.85613798,2.89433506,1.03802979,-0.00800936,0.00087772,0.02163068,0.14027029,-0.06025244,0.10936583
4.736,0.24863141,-1.42040195,1.702589547,2.85726222,2.89385179,1.03890636,-0.00806051,0.00091687,0.02172384,0.14080318,-0.06057104,0.10978531
4.744,0.2485667,-1.42039444,1.702763727,2.85839101,2.89336582,1.03978647,-0.00811764,0.00095979,0.02182313,0.14140342,-0.06092761,0.11024758
4.752,0.24850151,-1.42038658,1.702938737,2.85952486,2.89287685,1.04067044,-0.00818074,0.0010065,0.02192854,0.14207101,-0.06132214,0.11075265
4.76,0.24843579,-1.42037833,1.703114607,2.86066432,2.89238457,1.04155862,-0.00824981,0.00105698,0.02204007,0.14280594,-0.06175464,0.11130051
4.768,0.2483695,-1.42036966,1.703291387,2.86180993,2.89188867,1.04245136,-0.00832486,0.00111124,0.02215773,0.14360823,-0.0622251,0.11189116
4.776,0.24830258,-1.42036054,1.703469147,2.86296223,2.89138886,1.04334899,-0.00840589,0.00116928,0.02228152,0.14447786,-0.06273353,0.1125246
4.784,0.24823499,-1.42035094,1.703647907,2.86412176,2.89088484,1.04425187,-0.00849289,0.0012311,0.02241143,0.14541485,-0.06327992,0.11320084
4.792,0.24816668,-1.42034083,1.703827747,2.86528905,2.89037628,1.04516032,-0.00858587,0.00129669,0.02254747,0.14641918,-0.06386428,0.11391987
4.8,0.2480976,-1.42033018,1.704008687,2.86646464,2.88986291,1.0460747,-0.00868483,0.00136607,0.02268963,0.14749086,-0.06448661,0.11468169
4.808,0.2480277,-1.42031896,1.704190797,2.86764908,2.8893444,1.04699534,-0.00878976,0.00143922,0.02283791,0.14862989,-0.0651469,0.1154863
4.816,0.24795695,-1.42030714,1.704374107,2.8688429,2.88882045,1.0479226,-0.00890067,0.00151614,0.02299232,0.14983627,-0.06584515,0.11633371
4.824,0.24788528,-1.42029469,1.704558687,2.87004664,2.88829077,1.0488568,-0.00901755,0.00159685,0.02315286,0.15111,-0.06658137,0.11722391
4.832,0.24781265,-1.42028158,1.704744567,2.87126084,2.88775505,1.04979829,-0.00914041,0.00168133,0.02331952,0.15245108,-0.06735556,0.1181569
4.84,0.24773902,-1.42026778,1.704931817,2.87248604,2.88721298,1.05074742,-0.00926925,0.0017696,0.0234923,0.15385951,-0.06816771,0.11913268
4.848,0.24766433,-1.42025326,1.705120467,2.87372277,2.88666427,1.05170453,-0.00940406,0.00186164,0.02367121,0.15533529,-0.06901783,0.12015126
4.856,0.24758853,-1.42023799,1.705310567,2.87497158,2.8861086,1.05266996,-0.00954484,0.00195745,0.02385625,0.15687841,-0.06990592,0.12121263
4.864,0.24751159,-1.42022193,1.705502177,2.87623301,2.88554567,1.05364404,-0.00969161,0.00205705,0.02404741,0.15848889,-0.07083197,0.12231679
4.872,0.24743345,-1.42020506,1.705695347,2.87750759,2.88497518,1.05462714,-0.00984435,0.00216042,0.02424469,0.16016671,-0.07179598,0.12346375
4.88,0.24735407,-1.42018735,1.705890117,2.87879586,2.88439683,1.05561958,-0.01000338,0.00226792,0.02444861,0.16191275,-0.07279926,0.12465413
4.888,0.24727338,-1.42016876,1.706086547,2.88009838,2.88381027,1.05662173,-0.01017025,0.00238121,0.02466164,0.16373111,-0.07384805,0.12589099
4.896,0.24719132,-1.42014924,1.706284727,2.88141575,2.88321514,1.05763396,-0.01034514,0.00250051,0.02488408,0.16562235,-0.07494315,0.12717473
4.904,0.24710783,-1.42012874,1.706484717,2.88274854,2.88261106,1.05865665,-0.01052805,0.00262582,0.02511595,0.16758645,-0.07608456,0.12850535
4.912,0.24702285,-1.42010721,1.706686607,2.88409733,2.88199766,1.05969017,-0.01071899,0.00275714,0.02535723,0.16962341,-0.07727228,0.12988283
4.92,0.24693631,-1.42008461,1.706890457,2.8854627,2.88137458,1.0607349,-0.01091796,0.00289446,0.02560794,0.17173325,-0.07850631,0.1313072
4.928,0.24684814,-1.42006088,1.707096357,2.88684525,2.88074144,1.06179121,-0.01112496,0.0030378,0.02586807,0.17391595,-0.07978666,0.13277843
4.936,0.24675829,-1.42003599,1.707304377,2.88824555,2.88009787,1.06285948,-0.01133998,0.00318714,0.02613762,0.17617151,-0.08111332,0.13429655
4.944,0.24666668,-1.42000987,1.707514587,2.88966419,2.8794435,1.06394008,-0.01156303,0.00334249,0.02641658,0.17849995,-0.08248629,0.13586153
4.952,0.24657326,-1.41998249,1.707727067,2.89110175,2.87877797,1.06503339,-0.01179411,0.00350385,0.02670497,0.18090125,-0.08390557,0.13747339
4.96,0.24647795,-1.41995379,1.707941887,2.89255881,2.87810089,1.06613978,-0.01203321,0.00367122,0.02700278,0.18337541,-0.08537117,0.13913213
4.968,0.2463807,-1.41992374,1.708159137,2.89403595,2.8774119,1.06725963,-0.01228034,0.0038446,0.02731001,0.18592245,-0.08688308,0.14083774
4.976,0.24628145,-1.41989226,1.708378877,2.89553376,2.87671064,1.06839331,-0.0125355,0.00402398,0.02762666,0.18854235,-0.0884413,0.14259023
4.984,0.24618012,-1.41985934,1.708601187,2.89705282,2.87599672,1.0695412,-0.01279868,0.00420938,0.02795273,0.19123512,-0.09004583,0.14438959
4.992,0.24607665,-1.4198249,1.708826147,2.89859372,2.87526978,1.07070367,-0.01306989,0.00440078,0.02828823,0.19400075,-0.09169667,0.14623583
5,0.24597098,-1.41978891,1.709053827,2.90015703,2.87452945,1.0718811,-0.01334913,0.00459819,0.02863314,0.19683925,-0.09339383,0.14812894
5.008,0.24586304,-1.41975131,1.709284297,2.90174334,2.87377535,1.07307386,-0.01363639,0.00480161,0.02898747,0.19975062,-0.0951373,0.15006893
5.016,0.24575277,-1.41971207,1.709517647,2.90335323,2.87300713,1.07428232,-0.01393168,0.00501104,0.02935122,0.20273486,-0.09692708,0.15205579
5.024,0.24564011,-1.41967112,1.709753947,2.90498729,2.8722244,1.07550687,-0.014235,0.00522647,0.0297244,0.20579196,-0.09876318,0.15408952
5.032,0.24552499,-1.41962843,1.709993257,2.90664605,2.87142682,1.07674784,-0.01454382,0.0054468,0.03010268,0.20888551,-0.10062776,0.1561411
5.04,0.24540744,-1.41958398,1.710235527,2.90832896,2.87061457,1.0780047,-0.01484385,0.00566563,0.03046158,0.21180876,-0.10241964,0.15804571
5.048,0.24528752,-1.41953778,1.710480577,2.91003445,2.86978834,1.07927611,-0.01513282,0.00588196,0.03079725,0.21452914,-0.10412289,0.15977739
5.056,0.24516534,-1.41948987,1.710728227,2.91176088,2.86894884,1.08056068,-0.01541074,0.0060958,0.03110968,0.21704666,-0.1057375,0.16133613
5.064,0.24504098,-1.41944026,1.710978277,2.91350665,2.86809678,1.08185703,-0.0156776,0.00630715,0.03139888,0.21936131,-0.10726347,0.16272195
5.072,0.24491453,-1.41938896,1.711230547,2.91527012,2.86723286,1.08316377,-0.01593342,0.006516,0.03166485,0.22147309,-0.10870081,0.16393483
5.08,0.24478607,-1.41933601,1.711484847,2.91704968,2.8663578,1.08447952,-0.01617818,0.00672235,0.03190757,0.22338201,-0.11004951,0.16497478
5.088,0.24465571,-1.41928141,1.711741007,2.9188437,2.8654723,1.08580291,-0.01641189,0.00692621,0.03212707,0.22508806,-0.11130957,0.1658418
5.096,0.24452351,-1.4192252,1.711998817,2.92065055,2.86457708,1.08713253,-0.01663454,0.00712757,0.03232332,0.22659125,-0.112481,0.16653589
5.104,0.24438958,-1.41916738,1.712258117,2.92246861,2.86367284,1.08846702,-0.01684614,0.00732644,0.03249635,0.22789157,-0.11356379,0.16705704
5.112,0.244254,-1.41910798,1.712518697,2.92429627,2.8627603,1.08980498,-0.01704669,0.00752282,0.03264614,0.22898902,-0.11455794,0.16740526
5.12,0.24411687,-1.41904702,1.712780387,2.9261319,2.86184015,1.09114504,-0.01723619,0.00771669,0.03277269,0.22988361,-0.11546345,0.16758056
5.128,0.24397826,-1.41898452,1.713042997,2.92797387,2.86091312,1.09248581,-0.01741463,0.00790808,0.03287601,0.23057533,-0.11628033,0.16758292
5.136,0.24383826,-1.4189205,1.713306347,2.92982056,2.85997991,1.09382591,-0.01758202,0.00809696,0.03295609,0.23106418,-0.11700857,0.16741235
5.144,0.24369697,-1.41885497,1.713570237,2.93167035,2.85904122,1.09516395,-0.01773836,0.00828335,0.03301294,0.23135017,-0.11764817,0.16706884
5.152,0.24355448,-1.41878797,1.713834487,2.93352162,2.85809777,1.09649855,-0.01788364,0.00846725,0.03304655,0.23143329,-0.11819914,0.16655241
5.16,0.24341086,-1.4187195,1.714098917,2.93537275,2.85715027,1.09782833,-0.01801788,0.00864865,0.03305693,0.23131354,-0.11866147,0.16586304
5.168,0.24326622,-1.4186496,1.714363337,2.9372221,2.85619942,1.0991519,-0.01814105,0.00882756,0.03304407,0.23099093,-0.11903516,0.16500074
5.176,0.24312064,-1.41857827,1.714627557,2.93906806,2.85524594,1.10046788,-0.01825318,0.00900397,0.03300798,0.23046545,-0.11932022,0.16396552
5.184,0.2429742,-1.41850554,1.714891397,2.94090898,2.85429056,1.10177487,-0.01835106,0.00917494,0.032945,0.22971789,-0.11950063,0.16274983
5.192,0.24282712,-1.41843154,1.715154537,2.94274257,2.85333453,1.10307124,-0.01841298,0.00932041,0.03283024,0.22861732,-0.11946734,0.16130241
5.2,0.2426797,-1.4183565,1.715416537,2.94456585,2.8523797,1.10435507,-0.01843483,0.00943661,0.03265903,0.2271391,-0.11919982,0.1596136
5.208,0.24253227,-1.41828064,1.715676927,2.94637579,2.85142796,1.10562442,-0.01841662,0.00952353,0.03243136,0.22528322,-0.11869808,0.15768341
5.216,0.24238514,-1.4182042,1.715935287,2.94816938,2.85048116,1.10687736,-0.01835834,0.00958117,0.03214723,0.22304968,-0.11796211,0.15551183
5.224,0.24223864,-1.41812742,1.716191137,2.94994358,2.84954119,1.10811196,-0.01826001,0.00960955,0.03180664,0.2204385,-0.1169919,0.15309887
5.232,0.24209309,-1.41805052,1.716444037,2.95169538,2.84860991,1.1093263,-0.01812161,0.00960864,0.0314096,0.21744966,-0.11578748,0.15044452
5.24,0.2419488,-1.41797376,1.716693537,2.95342177,2.84768921,1.11051843,-0.01794315,0.00957846,0.03095609,0.21408316,-0.11434882,0.14754879
5.248,0.24180611,-1.41789735,1.716939187,2.95511971,2.84678096,1.11168643,-0.01772463,0.00951901,0.03044613,0.21033902,-0.11267593,0.14441167
5.256,0.24166532,-1.41782153,1.717180527,2.95678619,2.84588702,1.11282837,-0.01746605,0.00943028,0.02987971,0.20621721,-0.11076882,0.14103316
5.264,0.24152676,-1.41774654,1.717417107,2.95841818,2.84500928,1.11394232,-0.0171674,0.00931228,0.02925682,0.20171776,-0.10862748,0.13741327
5.272,0.24139075,-1.41767261,1.717648487,2.96001266,2.84414961,1.11502634,-0.01682869,0.009165,0.02857749,0.19684065,-0.10625191,0.13355199
5.28,0.2412576,-1.41759998,1.717874197,2.96156662,2.84330987,1.11607851,-0.01644992,0.00898844,0.02784169,0.19158588,-0.10364211,0.12944933
5.288,0.24112765,-1.41752887,1.718093807,2.96307703,2.84249196,1.11709689,-0.01603109,0.00878261,0.02704943,0.18595346,-0.10079808,0.12510528
5.296,0.24100121,-1.41745953,1.718306837,2.96454087,2.84169773,1.11807955,-0.0155722,0.00854751,0.02620072,0.17994339,-0.09771983,0.12051985
5.304,0.24087861,-1.41739219,1.718512867,2.96595512,2.84092907,1.11902456,-0.01507324,0.00828313,0.02529554,0.17355566,-0.09440735,0.11569303
5.312,0.24076015,-1.41732708,1.718711417,2.96731675,2.84018784,1.11992999,-0.01453422,0.00798947,0.02433391,0.16679028,-0.09086063,0.11062482
5.32,0.24064616,-1.41726444,1.718902057,2.96862275,2.83947592,1.12079392,-0.01395514,0.00766654,0.02331582,0.15964725,-0.0870797,0.10531523
5.328,0.24053697,-1.4172045,1.719084317,2.9698701,2.83879519,1.12161439,-0.013336,0.00731434,0.02224127,0.15212656,-0.08306453,0.09976425
5.336,0.24043289,-1.41714748,1.719257777,2.97105585,2.83814747,1.12238956,-0.01268348,0.00693728,0.0211207,0.14429903,-0.07885604,0.09402081
5.344,0.24033397,-1.41709346,1.719422387,2.97217978,2.83753302,1.1231194,-0.0120529,0.00657203,0.02004056,0.13675119,-0.07479306,0.08849008
5.352,0.24023995,-1.41704228,1.719578587,2.97324497,2.83695019,1.1238062,-0.0114566,0.00622674,0.01902012,0.12961383,-0.07095114,0.08326241
5.36,0.24015057,-1.41699378,1.719726867,2.97425469,2.83639721,1.1244524,-0.01089458,0.00590143,0.01805939,0.12288693,-0.06733028,0.0783378
5.368,0.24006555,-1.4169478,1.719867697,2.97521225,2.83587231,1.12506042,-0.01036685,0.00559609,0.01715837,0.11657052,-0.06393048,0.07371624
5.376,0.23998461,-1.41690419,1.720001557,2.97612092,2.83537373,1.12563267,-0.00987339,0.00531072,0.01631705,0.11066457,-0.06075173,0.06939775
5.384,0.23990748,-1.41686278,1.720128927,2.97698398,2.8348997,1.12617159,-0.00941422,0.00504532,0.01553543,0.1051691,-0.05779405,0.06538232
5.392,0.23983389,-1.41682341,1.720250287,2.97780472,2.83444844,1.1266796,-0.00898933,0.0047999,0.01481352,0.10008411,-0.05505743,0.06166994
5.4,0.23976356,-1.41678592,1.720366107,2.97858642,2.83401819,1.12715912,-0.00859872,0.00457444,0.01415131,0.09540958,-0.05254186,0.05826063
5.408,0.23969622,-1.41675016,1.720476867,2.97933237,2.83360718,1.12761257,-0.00824239,0.00436896,0.01354881,0.09114553,-0.05024736,0.05515437
5.416,0.23963159,-1.41671597,1.720583047,2.98004584,2.83321364,1.1280424,-0.00792035,0.00418344,0.01300602,0.08729196,-0.04817391,0.05235117
5.424,0.2395694,-1.41668318,1.720685117,2.98073013,2.83283581,1.128451,-0.00763258,0.0040179,0.01252293,0.08384886,-0.04632153,0.04985104
5.432,0.23950938,-1.41665163,1.720783567,2.98138852,2.83247191,1.12884082,-0.0073791,0.00387233,0.01209954,0.08081623,-0.0446902,0.04765396
5.44,0.23945124,-1.41662116,1.720878867,2.98202429,2.83212017,1.12921427,-0.0071599,0.00374674,0.01173586,0.07819407,-0.04327993,0.04575994
5.448,0.23939473,-1.41659163,1.720971497,2.98264072,2.83177884,1.12957379,-0.00697498,0.00364111,0.01143189,0.07598239,-0.04209073,0.04416898
5.456,0.23933955,-1.41656285,1.721061937,2.9832411,2.83144613,1.12992179,-0.00682434,0.00355546,0.01118762,0.07418118,-0.04112258,0.04288108
5.464,0.23928545,-1.41653469,1.721150667,2.98382871,2.83112029,1.13026069,-0.00670798,0.00348977,0.01100305,0.07279045,-0.04037549,0.04189624
5.472,0.23923213,-1.41650696,1.721238147,2.98440684,2.83079953,1.13059293,-0.0066259,0.00344406,0.01087819,0.07181019,-0.03984946,0.04121446
5.48,0.23917934,-1.41647953,1.721324877,2.98497877,2.83048211,1.13092093,-0.00657811,0.00341832,0.01081304,0.0712404,-0.03954449,0.04083574
5.488,0.23912679,-1.41645222,1.721411317,2.98554776,2.83016624,1.1312471,-0.00656307,0.00341162,0.0108046,0.07106083,-0.03945007,0.04074364
5.496,0.23907429,-1.41642492,1.721497807,2.98611617,2.82985066,1.1315731,-0.00656518,0.00341443,0.01082231,0.0710639,-0.03945861,0.04076985
5.504,0.23902172,-1.41639757,1.721584517,2.98668513,2.82953471,1.13189961,-0.00658034,0.00342424,0.01085814,0.07119515,-0.03954186,0.04087021
5.512,0.23896897,-1.41637011,1.721671587,2.98725564,2.82921779,1.13222722,-0.00660855,0.00344106,0.0109121,0.07145459,-0.03969983,0.04104472
5.52,0.23891594,-1.41634249,1.721759157,2.98782874,2.82889931,1.13255653,-0.00664981,0.00346488,0.01098418,0.07184221,-0.03993252,0.04129337
5.528,0.23886254,-1.41631466,1.721847377,2.98840546,2.82857867,1.13288811,-0.00670412,0.0034957,0.01107438,0.07235802,-0.04023993,0.04161616
5.536,0.23880864,-1.41628654,1.721936397,2.98898681,2.82825527,1.13322258,-0.00677148,0.00353353,0.01118271,0.07300202,-0.04062206,0.04201311
5.544,0.23875416,-1.4162581,1.722026357,2.98957383,2.82792852,1.13356052,-0.0068519,0.00357837,0.01130916,0.07377421,-0.04107891,0.0424842
5.552,0.23869898,-1.41622927,1.722117397,2.99016754,2.82759781,1.13390253,-0.00694536,0.00363021,0.01145373,0.07467458,-0.04161047,0.04302943
5.56,0.238643,-1.4162,1.722209657,2.99076897,2.82726255,1.13424919,-0.00705187,0.00368905,0.01161643,0.07570314,-0.04221676,0.04364882
5.568,0.23858611,-1.41617023,1.722303307,2.99137913,2.82692214,1.13460111,-0.00717144,0.0037549,0.01179725,0.07685989,-0.04289777,0.04434235
5.576,0.23852822,-1.4161399,1.722398467,2.99199907,2.82657599,1.13495887,-0.00730405,0.00382776,0.01199619,0.07814482,-0.04365349,0.04511003
5.584,0.23846921,-1.41610896,1.722495287,2.99262979,2.82622349,1.13532306,-0.00744972,0.00390762,0.01221325,0.07955794,-0.04448393,0.04595185
5.592,0.23840899,-1.41607736,1.722593927,2.99327233,2.82586405,1.13569429,-0.00760843,0.00399448,0.01244844,0.08109925,-0.0453891,0.04686782
5.6,0.23834744,-1.41604503,1.722694517,2.99392772,2.82549706,1.13607315,-0.0077802,0.00408835,0.01270175,0.08276874,-0.04636898,0.04785794
5.608,0.23828447,-1.41601193,1.722797207,2.99459698,2.82512194,1.13646022,-0.00796502,0.00418922,0.01297319,0.08456642,-0.04742358,0.0489222
5.616,0.23821997,-1.41597799,1.722902137,2.99528113,2.82473809,1.1368561,-0.00816288,0.0042971,0.01326275,0.08649229,-0.0485529,0.05006061
5.624,0.23815383,-1.41594316,1.723009457,2.99598119,2.8243449,1.13726138,-0.0083738,0.00441199,0.01357043,0.08854634,-0.04975694,0.05127317
